vitali-it/MachineData/src/main/resources/Machine.csv
,Cycle,A1,A2,A3,A4,A5,A6,A7,A8,A9,A10,A11,A12,A13,A14,A15,A16,A17,A18,A19,A20,A21,A22,A23,A24,B1,B2,B3,B4,B5,B6,B7,B8,B9,B10,B11,B12,B13,B14,B15,B16,B17,B18,B19,B20,B21,B22,B23,B24,C1,C2,C3,C4,C5,C6,C7,C8,C9,C10,C11,C12,C13,C14,C15,C16,C17,C18,C19,C20,C21,C22,C23,C24,D1,D2,D3,D4,D5,D6,D7,D8,D9,D10,D11,D12,D13,D14,D15,D16,D17,D18,D19,D20,D21,D22,D23,D24,E1,E2,E3,E4,E5,E6,E7,E8,E9,E10,E11,E12,E13,E14,E15,E16,E17,E18,E19,E20,E21,E22,E23,E24,F1,F2,F3,F4,F5,F6,F7,F8,F9,F10,F11,F12,F13,F14,F15,F16,F17,F18,F19,F20,F21,F22,F23,F24,G1,G2,G3,G4,G5,G6,G7,G8,G9,G10,G11,G12,G13,G14,G15,G16,G17,G18,G19,G20,G21,G22,G23,G24,H1,H2,H3,H4,H5,H6,H7,H8,H9,H10,H11,H12,H13,H14,H15,H16,H17,H18,H19,H20,H21,H22,H23,H24,I1,I2,I3,I4,I5,I6,I7,I8,I9,I10,I11,I12,I13,I14,I15,I16,I17,I18,I19,I20,I21,I22,I23,I24,J1,J2,J3,J4,J5,J6,J7,J8,J9,J10,J11,J12,J13,J14,J15,J16,J17,J18,J19,J20,J21,J22,J23,J24,K1,K2,K3,K4,K5,K6,K7,K8,K9,K10,K11,K12,K13,K14,K15,K16,K17,K18,K19,K20,K21,K22,K23,K24,L1,L2,L3,L4,L5,L6,L7,L8,L9,L10,L11,L12,L13,L14,L15,L16,L17,L18,L19,L20,L21,L22,L23,L24,M1,M2,M3,M4,M5,M6,M7,M8,M9,M10,M11,M12,M13,M14,M15,M16,M17,M18,M19,M20,M21,M22,M23,M24,N1,N2,N3,N4,N5,N6,N7,N8,N9,N10,N11,N12,N13,N14,N15,N16,N17,N18,N19,N20,N21,N22,N23,N24,O1,O2,O3,O4,O5,O6,O7,O8,O9,O10,O11,O12,O13,O14,O15,O16,O17,O18,O19,O20,O21,O22,O23,O24,P1,P2,P3,P4,P5,P6,P7,P8,P9,P10,P11,P12,P13,P14,P15,P16,P17,P18,P19,P20,P21,P22,P23,P24
,1,0.905140715442485,-27.8163966731868,-11.1000576361284,-6.86177778593992,-24.7512216176538,-11.3987226012587,-31.7874367125496,-8.88708390630427,-6.36023098028545,-16.2142534683758,9.17840308391487,-14.0830126543005,-4.39808736183113,-3.65740039404136,7.65584943675503,16.0380045336206,22.2146280542984,23.9362941162249,15.0326712558826,10.5359939285222,13.5703511035372,13.9648450587847,8.37708022290235,13.1338260394609,-3.80746366045605,-3.26024385215533,-6.98695533194359,-4.49910707543904,-5.46116953433648,-2.36348417366116,-5.92924112754235,-4.63558441996565,-1.81831452987353,-0.884046645536273,0.784768734790305,-0.21788652694795,0.044894941509483,2.47734255115029,-0.396161678957469,-2.6653158550539,-5.07512772459449,-1.2759599818919,-4.548193977148,-8.99422694703753,-7.60721906846265,-4.8653468978996,-4.80295931378942,3.07696041342524,-6.6808805307578,3.38867724451575,-12.9341995626141,-4.34437923935002,-16.7066544500158,2.41465988096525,-3.52941138645429,-34.369672598898,-25.806321746973,-5.05571470182667,-9.13787417981348,-100.038250042839,4.61665531235712,10.1395430789298,10.8317225809069,12.3099091045569,10.682429662877,6.97199095893257,3.29949643764667,5.2378230033255,9.21562349699798,10.4164458412538,11.2967851708704,15.8991951239123,-10.125456459135,-4.407770396866,-7.44267555265378,-10.3697752850553,-6.03679836260744,-2.47766331999037,-7.27249815851883,-5.0236895997482,-7.59570845110966,-2.47056148570528,-7.03027330286477,-2.24716666469931,-3.35884498554606,-2.9392516055641,0.586542080707659,1.52655815311346,-0.807926861669785,2.7304726672769,3.39625527783755,-1.77089633223977,-1.02904177433311,-2.97171777039739,0.15820113125892,-3.76079113556125,-7.48209608630032,-8.50502022973251,-13.5065921249034,-6.32204166037081,12.1969717357802,12.7225244994775,-16.2346896050649,-21.914425323102,-16.7750208256448,-30.1383124743361,-21.5565267828197,-14.2258499590371,-3.19115121978621,8.51101661543225,8.24895379199643,10.0782415716167,19.2413467901579,11.7331812146253,5.28530044949548,12.7257241494549,19.2700095264272,19.3396262797178,15.9594175765696,4.43664195520023,-4.92694204142708,-5.2117558754021,-1.88757812440599,-5.18198491514431,-3.838882622867,-7.29461522767542,-8.68386953691834,-5.5668561951934,-1.89759789712252,-0.928825791908366,-1.25456293765774,-1.04401060279088,1.42706700384315,-2.5183221628231,0.446012332768987,-6.52617766777485,0.413646578178032,-2.60201295396564,-4.98919981705785,-11.2287337931443,-7.10843516549994,-3.60343094422024,-7.52127042510756,-2.67919827252808,-5.29816345324753,4.93233094995912,-10.864820353278,-0.0799443337509729,-6.69540808831061,-0.984071211793889,-7.84294242697524,-29.0436573590227,0.78974103079554,5.95326275742354,-19.1322758360848,-32.7531041490074,8.3862257963051,10.2348994018857,16.631820866437,19.6538911738853,24.8666305033848,17.7400695249439,6.90083558722654,0.276422524213103,28.4814358658928,30.9269029427978,17.4129229911136,14.680274115849,-6.07553241311962,-5.75285426462278,-4.06184918238841,-7.6212688528467,-2.47400721630402,-1.29295123733573,-6.64143894358222,-8.39096595230376,-7.36564488967679,-4.9896782802316,-3.3712816092052,-1.84352391204584,-3.23092837421837,-1.28912714353555,0.236597840539162,2.82109903428773,2.38023356537678,-3.18541750962095,1.6279084944631,-4.00057020521535,-2.13710582779822,-0.0524453942075525,-3.39230247648129,-0.713333780345238,-4.18824738263675,37.7381324720154,-315.727203676102,-2.34073180549149,15.8689752248738,-12.8436730526591,-26.2746955368111,-13.8502557255174,-18.1913143172055,-42.4859962948458,-25.871803870612,-43.4705247984175,21.3640325920901,17.0585141198853,18.863507984106,13.6378590351619,23.5742313738601,23.4715797472754,18.4840299543444,14.3663993298146,20.4754906045073,19.6747994568955,14.0934776846952,9.27124846855577,-1.5394675623993,-4.0428406506735,-4.24641851702654,-5.66240900015737,-5.16594462432386,2.57176622537736,-6.6677893283977,-3.339660225638,-6.49595249998129,-4.27307446799341,-3.80944339020516,-6.52853663536189,-4.56917486088287,-5.44143721858518,-0.890960457681558,-1.07723039000621,1.15076339163443,-3.61066860321262,1.50066430169863,-1.57723995533979,-1.50867477874635,2.59569731921283,-0.0940452388908852,-0.371249695738697,-48.6696044161026,-26.2788273380238,-18.143004777879,-13.5329999101295,-15.4098679681501,-4.33809608830416,-31.9238477770423,-30.847405464604,-31.4638302863987,-42.665619329613,-32.6880092071206,-45.1293103915582,-4.1179405372618,-0.00359406843426768,-2.27825250982505,18.8077060499436,17.7344122871941,10.3738063787364,-1.3620668655235,0.537946313968405,11.2447444949703,13.8968887440301,17.538825187492,2.59868204584154,-7.18401110157856,-6.61001026060512,-8.18341427375708,-5.83797317703102,-5.15619343061371,-3.03767687896152,-7.57084576289844,-8.33209963883519,-1.01017703881098,-4.52235022660489,-3.5749562776632,-5.37521880738313,-2.56791330791202,-7.0448033754551,0.763156165389773,-2.62026411097577,-2.49670419271251,1.18699642398951,1.06154605546226,-2.44206764239652,1.25779649313517,0.104361842280014,3.07972092066166,2.76337637729193,-5.69731323199903,-4.26927037327278,-0.45470994050811,-0.493724477797969,0.264237736698306,2.67989394144797,0.208246973361383,0.428824828462893,-2.79149427039874,0.210973641111195,-0.369529868518839,-0.354951865090243,1.27706256493366,0.87071641547027,0.459517967340616,-2.09021107798389,3.34523124519683,1.02655216805533,3.0131459229915,-1.36568098668204,1.93080921473438,2.53230812258744,3.23690287414729,3.93113374997301,-2.79741699445276,-2.65645471098787,-0.685527995390203,-8.59519842464397,-2.59951987708564,-5.33333098118464,-7.83288783625085,-5.90980881232872,-4.40955768489357,-4.00842577907088,-6.28644813788969,-3.47693968470958,-1.78328391417381,-6.21359718425765,-1.73995407662733,-4.3602060358262,-4.76316392230228,-6.86357313355893,-0.111260708576083,-3.28490840571567,-1.6352095671632,-5.79840957269153,-3.04714690429,-0.693620826558799,-0.114568843451252,-0.698344083160009,-3.13358529991774,-0.778592575373295,0.0727533681911154,-0.00519538727576219,-5.24250755877029,-2.75951740683149,-1.55347396035177,-2.13656493361577,1.13446207051447,-5.52468534297122,-2.69230950876045,-2.72336333341445,3.1392361486337,-4.37468062837661,-1.05266293748082,-1.29451766714146,-1.76872829669082,-7.74709024198455,1.58297047982842,-1.98288349989343,-0.290690770873425,0.331516686359464,-3.23105393077185,-2.98525204061752,-4.00705110969102,-3.23154255861482,-6.51394159132406,-7.66628674155163,-6.59318052896469,-4.38749326115249,-2.72427148081579,-3.70887798018885,-4.17599029761504,-3.00510092003015,-3.50423180714597,-6.70649865126643,-2.90998867937788,-0.238254166698425,-3.41516430353977,-5.56996094682336,-1.44037079335658,-2.3697404446516,-0.710448141001052,-3.92860760539588,1.22448210500625,4.01104024194365
,2,-0.588182448808311,-16.1944786921972,-3.08061691970306,-1.75557561890082,-11.6904046373884,-4.76536428557847,-14.488571889694,-2.19526146698217,-3.46953192234514,-10.6459984632579,3.38235853849255,-7.17912380403322,-3.55361007652527,-3.62078975878103,10.8170472112674,8.99781156752761,18.9631135864033,25.9190711688175,16.2501139322003,12.6635739181042,16.5163596945772,10.2345332936802,11.8545210009534,15.1904028589979,-5.89058620391143,-9.74374224374196,-8.10914228298861,-6.17710362843036,-5.28622358148914,-3.63599924040318,-7.09519070759143,-6.073939842237,-6.16862169622618,-6.49901270785904,-6.25614912469655,-8.04918068467668,-5.27895734787944,-10.364151536407,-0.588805795545341,-0.0671854568322487,-5.80622728859635,-2.74942334483967,-4.32782762528132,-1.69933628243007,-2.38021179215684,-8.52570317272966,-4.0281677464418,-4.41595197334073,-1.89656514706212,-3.78577094614457,-4.51542195248157,-1.67481901399742,-6.09189541063643,3.52466643099569,0.0960714839807224,-23.467457788804,-14.4542298971196,1.24214563202213,-7.49926906433757,-73.172698135525,5.83734034643521,11.1894887730277,18.8262321236816,12.9571903307897,12.9006894272979,10.8323555121538,4.59023458545244,6.57193960466111,7.88470849633586,9.27320855543212,12.4343851923923,12.881069991799,-4.27793059107671,-4.92141344464017,-4.67915416511005,-7.86510443529141,-4.17611450095865,-3.47203808712447,-7.30794827533737,-8.15914974836687,-8.7055946587875,-5.29786273864283,-7.03954494724076,-5.92726431299116,-5.60533801575093,-3.56329729875188,-4.75300334891244,-1.94137838299093,-2.35842695503879,-8.20413378405465,-3.31076814894141,-3.93410628830316,-2.72869911266389,-0.627756103921001,-3.83052851981392,-4.21380678408059,0.433804136824619,-4.78116264352184,-8.64462902674813,9.58336445069244,17.8926256477976,12.8805814773209,-3.45172934735183,-15.3732375983059,-1.89222690586257,-11.716697243357,-6.62875069562961,-6.06443394674261,3.1525499438244,7.58578282340841,10.781171202063,11.0632207404005,16.5097204922727,5.50870164205207,3.88309930747255,11.8709523186021,21.1754946425335,23.7204924497637,21.0971681863384,7.44847461070049,-8.07584325978269,-5.87961339246203,-10.3155439151728,-8.30188371313398,-4.14699085983011,-0.0296461295151857,-8.81856121099599,-8.88349816341179,-2.42384678554208,-8.07058529050164,-3.26605940327545,-9.03595073473434,-5.71945495773025,-3.27879290892133,-2.99212107004178,-3.07939570759299,-3.51055872047709,-1.60618311188,-7.06236225069324,-6.27408842306249,-0.79365226772461,0.161627319477248,-3.95976387520795,0.258014755270324,1.30704245272364,7.81145025496289,0.697014412485714,7.09079507317438,1.02966186975027,-3.92860900863798,2.11302223922667,-15.4296041583066,8.72888561636819,16.2274015425019,0.83504346830432,-16.0867793646812,5.62177308453829,11.3028822571823,11.8283471408222,21.6184008343525,20.381762929906,12.2507406334794,5.85548643748325,2.73713974873044,26.9818780182159,32.5295256244317,21.4269325968435,15.5364887402861,-5.33579762860063,-6.18559926653006,-9.48333830706406,-4.95647393275658,-6.83244000531295,-5.46004903167523,-8.95542532514764,-4.72738495978274,-5.67370100206654,-7.56096525998009,-9.13483341201891,-5.64654766032982,-5.23906391576384,-6.46062528495986,-7.88528868987078,-7.54263264362589,-5.21135953991597,-5.73045727159342,-5.73340033402428,-4.59674024500873,-2.24971712283468,0.0372783017460279,-2.81323526330334,-3.68388556191258,-0.157614540609757,3.79128132814913,-306.5766263066,0.0544821961793787,22.6678518245044,-10.0133780788219,-7.33177298190003,1.45999009430534,-3.83249461421383,-5.72436341064713,-3.34897228431055,-18.618450493268,23.2520047709322,15.4364578676891,17.6832448720634,14.7840366138453,23.3303323972409,25.1860715373205,19.7968845091882,16.5864177101425,19.19782928927,19.9706298481183,10.2340440014577,5.46138838801198,-2.26207626630185,-7.52946405892681,-8.89759879375197,-7.654426227984,-3.12963025233012,-2.20145796085399,-9.59405764887606,-5.60360882894474,-6.91942383399555,-5.12727635466945,-6.85401770695535,-4.50032626132452,-7.26004430386956,-7.28627975725885,-5.2866082389578,-5.63650084311666,-7.48184095327133,-3.24455780336802,-0.551392111945916,-8.43155801183912,-4.50111534079178,1.9255150697245,-3.96487691675111,-1.06947442200635,-31.1515604765737,-11.9834825122421,-10.2238561101694,-4.21126693727274,-4.1854210448937,0.799877709085649,-17.6467055274761,-23.0107505010933,-19.668668148855,-19.2324257615219,-15.4036113570673,-24.6363185260821,-5.22839331604655,1.71893104545916,-1.25320176317746,22.8126908544209,18.8015346552074,12.8744593358465,1.5756952821439,-1.37305334429948,4.45903708707647,14.368224391611,15.6681251226091,3.16348030466497,-4.83607055000539,-3.79169142508999,-10.85513511616,-6.75405610984444,-2.75757657211807,2.31249251358395,-11.5793212112435,-6.95471239556309,-5.31854351679613,-4.07684600319999,-5.28245511812293,-7.91669969273062,-4.16505333315354,-3.23789045192552,-7.06514714191644,-8.5916445478324,-3.20149988891853,-1.22033124697145,-3.14084684475392,-2.28024138092269,-2.83475819839168,0.536231712947938,-0.724879715315637,-0.696395335906345,-3.39556707393103,1.33332872265828,-0.856186745651485,-3.32603091304964,-0.627259861158564,1.55250195500321,-1.73944180720537,-1.54433320730595,1.96805233672876,-0.646214527973825,2.48539036245347,-2.2733916709476,2.46760153503783,0.0447099290931874,-1.92493294957285,0.445816538381678,-0.0604505418746157,-4.5356278504205,-0.893102986728081,-1.96972358131325,0.225559247863202,-2.62087623077605,1.10323998092235,-1.13040521472112,-0.883428938338966,-4.15527246267266,-10.9187316543052,-11.1795233049261,-5.95623376632329,-1.88268972591504,-7.32571286192069,-7.36529829857318,-2.29185275424925,-8.84398221169658,-2.87554050777044,-2.70821701615432,-5.65141525038689,-4.52105059754194,-3.12329404416596,-4.60590934689617,-1.44904420303783,-4.78133177071095,-3.10108593055338,-1.38105504363602,-0.218655069984834,-4.69900709260082,1.4333197338301,1.00157013137959,0.208920809668598,-1.40902079548869,-2.91674617620038,-1.00655991237136,-3.91885236713779,-2.75075650749204,-5.71631868391705,-3.54597379808774,-2.47077200675039,-3.04815100270798,-2.92308142285128,-3.04366590327618,-2.86514469292842,-4.38954036708537,-2.28041868376158,-0.255718213130876,-3.09616078211775,-2.20806560133315,-2.72826430759915,-1.75692617880941,-2.98596003571902,-0.612303774198153,1.19221156305412,-2.09296694700106,-9.6521320966317,-6.10281088911142,-3.09765665596251,-4.21906085828005,-1.9962281852645,-2.47418359383664,-6.61993640462515,-5.91344981619477,-6.18993743956071,-2.96206678518956,-5.65553538992253,-7.08849119164006,-4.82020865164804,-2.79512362538389,-1.11035697710167,-4.72514167901227,-7.17167487767574,-1.34953989603036,1.40055334373483,-0.632583121650441,0.584942458673595,0.783409447717077,-1.73622957387852,0.150746827602234
,3,-1.04318213189708,-13.0793163529274,0.0575862954792683,3.63493775580127,-0.00213048502610036,-4.81837572399536,-4.45906908369489,-0.778262581537092,0.36229060874939,-9.25258130865041,2.97665834377221,-2.67267502179129,-0.919264339804158,1.33195351471477,9.2631591474842,15.5734468670294,22.6470951085166,25.8909150457689,17.5959612471811,14.0180642382375,13.6554849445397,8.86623679690456,7.76703515718555,12.7076342091168,-5.9789456231656,-2.76924933636337,-5.78970742128058,-6.74666607703921,-2.90115522711403,-6.08300513564836,-6.05652450365324,-3.40778534294486,-5.36984415613279,-5.29652822873459,-10.2428892026492,-7.03825980587771,-5.54070642408306,-5.4563603341212,-5.53882109665119,-3.45835139990822,-3.85538763706791,-3.81497580532368,0.83673972986935,-2.91395797130144,-2.97143772667005,-4.78084004880338,-3.50434165910428,-3.44208271373827,1.00582821554281,-8.44601542090277,-7.8736952933159,3.40445429285273,0.673559839137852,8.57102946168652,0.734250088723911,-17.3334485218256,-7.87239781608923,4.75305116566869,-4.45996827702129,-55.1473504061469,5.02051415644519,11.50853123468,18.0726313610976,13.7631841436382,11.9238907550516,10.4233138793234,3.78285250345834,8.82531272496362,10.290040091973,7.21616107504269,13.2931344081794,14.9545055804101,-3.60833469426234,-5.22982836427354,-6.61536688314891,-5.85455969769828,-2.709602898703,-3.30964577881832,-3.61946465203891,-6.55603563705836,-5.14767600604682,-6.04317271702985,-10.0338612830224,-6.67942495928855,-5.2578070970244,-5.87125539141016,-1.86581450075892,-1.31031326437051,-3.93920402024605,-8.38719486157197,-7.75297982698703,-5.49813416894358,-5.54521437613903,-1.79049010828567,-4.0593352588312,-4.70435426355607,-2.46601792813954,-3.38930216593508,-8.09496383754276,4.08137696968015,12.1273279054985,6.01881705411552,3.85533973005295,-9.09154806888773,-5.69612983519346,-9.16827395808923,2.54122378060129,-4.14867026963884,0.888523926294511,6.69823312311564,11.9768684825422,12.8221564165992,16.366959342362,6.11276215744692,7.46281224529321,11.1064833464734,18.5198926330268,18.144200890496,16.0891036289013,8.88084486195521,-4.44473332738926,-4.68839894451185,-11.2962717516389,-1.46009968359567,-5.10276029680199,-6.31692369969824,-5.4299818681302,-10.0789653441634,-6.43088810856079,-6.50528673837925,-6.30423929780773,-5.20871545387126,-5.08266039265482,-4.48482581310009,-7.82340292868457,-6.28509624240451,-4.54871210116517,-5.72468775628067,-6.63223167501292,-2.34808107326126,-3.99729576841173,-1.87045106293908,-2.5934497051071,-1.35916746625844,3.04699824032014,5.22633166105106,-2.61177983989091,0.666753463916393,4.56572488453185,0.216944025129123,2.80616161181479,-11.2690133700044,8.82847238572549,10.7603157677304,4.00987922960303,-9.48731953955121,9.10964673816943,7.55097060285379,13.0747966117028,19.0283866501495,20.1024365193243,13.7105169679535,8.18310103001886,1.34442880118786,19.5353453421271,28.4748021376531,15.6975176496221,13.0701284166571,-3.26991512915038,-9.45713430388423,-6.97318145124564,-3.23620754507738,-6.42811810980402,-6.27178012160948,-3.91014425218145,-6.89740726431546,-8.95668311417967,-3.06046354772434,-4.47739020322706,-3.5866485795691,-10.7084084263674,-7.55910762602116,-7.63404491372376,-6.04489669260602,-3.0600765309182,-8.16226877055078,-7.16442640362766,-1.6471087466457,-5.50214609970226,-0.865694413062101,-3.66397329008623,-1.84007857828828,2.52462732020649,5.75310105321387,-11.2576068536655,0.33086993605184,26.9250760695122,-5.91050189766975,-10.3892748842645,3.80702962752912,-1.93104143293067,-2.24510170341546,-1.13649143838484,-6.86513337758697,19.7995846187032,14.2620555243548,13.7638020869977,14.2332105355276,20.9569019214823,22.7658699396652,17.8429946829951,15.2571677496594,13.9485094968777,16.0084197722722,13.447721931404,9.5448292618139,-5.42771949851658,-4.80398856874126,-8.56110676749813,-4.48154406909225,-0.603068912570052,-2.58540502476399,-1.37013504954984,-4.45019971393867,-2.56280003034817,-5.98866721599916,-5.5104279896118,-2.29833183576056,-6.82194408273017,-6.50620627568696,-4.87634805626612,-6.94250931138549,-2.77291629335832,-2.23846731173899,-5.31098786756775,-4.57188108800847,-2.19707052816057,-3.50837655136183,-0.387118333419039,-4.31643516325721,-20.0447616953097,-12.2935195954592,-6.5537653957299,-1.82950145936593,-3.47891849227926,2.16521142008514,-10.8319419301142,-17.721732002587,-8.4121851622067,-12.9407066760859,-13.292191218924,-10.4228572336183,-3.21161085538552,0.434076924906094,-2.86135027846967,23.8630380374148,16.9031943808491,12.1689002849662,3.8044961444084,3.83692546041357,5.12923747916693,12.0981923653912,13.73075056263,0.272902710155449,-4.17340255251065,-2.4714567495439,-7.12966941408558,-4.5846402861298,-1.28991004067984,-4.67855256661551,-4.60809660522773,-8.72994581826879,-5.47347476094592,-3.65205646315462,-6.81381217968828,-8.4499635021125,-4.97074565670664,-7.9576140030199,-1.46657416086509,-7.48833198061857,-4.45604600699789,-2.37373021023132,-3.41995226682093,-3.85357570621545,-1.90551177644829,-4.0320031883889,-4.16423937451054,2.31320485531705,-4.89733519474021,-2.25609148818694,-0.0306790000190631,-2.10565346263911,-4.1202648113258,-4.39095308968081,-4.79061776238541,-1.24235877290403,1.79268322691632,-1.2417323488894,1.64792639869574,-2.50361653240316,-3.17694743826041,-3.08062279068872,-4.49245713694881,0.0219868926683375,-1.55457660222146,-1.93864065444041,1.3446929657166,-1.9106609572118,-2.12734951832044,-2.11213407163723,-2.27511393390614,-1.68576242190284,-9.15812086801861,-6.73089499798698,-7.52507291954544,-1.75015387743315,-5.47912504957503,-6.40009422986668,-3.41239362010401,-4.94163338051339,-3.85943997844515,-5.69025486906548,-13.2429883256432,-3.80706445851911,-5.70184386091569,-5.06695398201509,-6.50802370938072,-5.81510417642676,-5.72130350188127,-5.48705340914648,-3.25483674051065,-4.98979319212594,0.879735360402719,-7.77419383988672,-3.00030225651017,-3.3812787517104,-1.24265578090262,-3.1854906084136,-1.17483929087712,-4.52771313429457,-4.43291186323768,-3.58539802500218,-5.82782883650134,-0.999108353689735,-1.66098685430143,0.0400767603550776,1.3233209891705,0.273743383856072,-0.755960895770841,-4.17355515558984,-2.03837965725143,-1.16632048933798,-3.38359032570997,0.354328149788671,0.325812706746547,-3.82898828255384,-1.08097305643378,-0.153049360700152,-1.95623995990127,-3.25571870512704,-5.84618352823099,-6.69239222832357,-7.18122392292116,-5.51038196775562,-11.5099170606727,-7.6078865680729,-3.98771038324321,-9.05845197557028,-6.27111293689632,-10.1635706534976,-7.99202048938287,-4.48435073889459,-4.97094599821503,-8.5679778962749,-3.20736958242787,-5.26871124748868,-2.59287957233801,-0.697373384164621,-6.61133967727255,-2.15811349414525,-1.12387719153503,0.0499260065298586,-2.96479526182657,0.0510850117443624
,4,2.98864354261013,-5.65828397774521,3.4529869768744,5.78493849194092,1.34922244651989,0.753991159403085,-2.18321091433791,2.258237676102,2.91685852162436,-7.90981319146704,7.34603609268652,3.99512262564895,3.00879040732343,2.19471170055112,11.0251021197919,16.642989860231,15.5835624402353,22.0598978580938,11.1007274430817,11.6898476928154,13.3412009860094,8.78214475085633,6.51467446386005,10.2448618994486,-2.16870444923552,-2.41614861461312,-2.81587045515562,-0.460301436269219,-1.50470746341261,-2.98761239726628,-2.86720077936798,-1.99727001217661,-2.27112842406768,-4.82192223738502,-3.31894676254024,-3.61812695362005,-4.25365485096427,-8.15147405966263,-3.35409675509936,-4.33181004847347,-4.72693571435548,-5.65784576461419,-0.876387249712025,-2.48522033561585,-1.65412557819036,-1.06908973514055,-2.42666616304177,-6.53000123541642,-0.954754998435874,1.98931748332734,-0.546986759029551,5.68178742448754,-0.272402564507502,7.94807250349777,6.70596097498492,-11.6123873243882,-1.32775615264882,8.66041700664164,2.25500108761025,-15.3062770669867,3.12781069691937,7.26123069291043,18.8756006016629,9.02561088293623,7.98348062678906,7.6585074238269,1.93716239189371,7.41936679000173,4.93523474911717,3.69809891287878,12.593385278316,10.7005443571134,-5.41842934894203,-3.80983071282481,-5.97095203434537,-1.36926418384337,-7.04403353787711,-3.20627161477842,-3.28039260742298,-4.367103621767,-6.65368204225615,-6.80941451922354,-5.71079361644979,-5.64302098556664,-3.61335469919777,-7.5529484887752,-4.66477650249499,-3.70625623276919,-4.76801755804127,-2.17144443834513,-5.21349551727553,-2.51877106657821,-4.12172941344716,-3.28503955262659,-3.91171492363355,-4.60814216821927,-0.766492459585606,-0.149255585645733,-6.24181017375986,7.64447584085292,10.7547883301913,7.43469927751539,4.02672706212161,-10.7155968178931,-0.270732938037781,-2.71334687807121,5.36265194118914,5.0988913256283,3.73387846304013,8.16127299273967,10.9231865140623,10.4043864977643,12.0935757092275,5.2373957856862,3.12635071933209,13.685395696351,20.4804356296627,21.5067486137459,12.5237730684539,6.223250808594,-2.81849192633808,-4.14751146475965,-2.43385355064038,-3.00238663331265,-2.36629416834876,-4.56830185854187,-4.47638143924223,-5.97619025436643,-4.07898897261521,-5.04441960035911,-3.25729128561852,-6.67212837327543,-5.29418827590916,-6.65271587794223,-4.45761673167408,-2.81188112907512,-6.04953556237751,0.135223693383978,-7.55715886191774,-2.33430839860421,-4.35439532589135,-6.91584640449491,-4.59269303929705,-4.33068911869259,1.45027191688905,2.93456589040352,4.4229932254475,5.19835912114559,1.44517042618463,1.65366031172198,5.79941676135604,-6.38365462990714,7.0352086470707,7.298094414974,2.11605269151642,-0.379811710551621,3.31890283838402,9.67013023979189,15.1366774647649,19.9599443734351,16.3992070688319,15.5865457347695,11.6376113056917,3.09195165053188,17.599069173627,24.3831807415709,14.4663018480942,11.0003102986707,-6.40487736235218,-6.04686293816485,-4.13229052139604,-3.42823590766147,-2.27376241654838,-3.67473386111578,-1.6179452872766,-8.52306767073287,-4.13029677134091,-7.99270497098905,-7.91615794660402,-6.72903991585963,-7.53710281729309,-6.72260752307011,-5.56710331174418,-5.92961184023579,-6.74602673193476,-7.23643402468178,-8.35329453372242,-1.9432644501012,-4.22361690056778,-3.14230090658066,-0.422767124335678,-5.48807200966576,5.18265314846803,6.72986906020151,-8.35030172360621,7.01147987952163,26.9897040214037,-1.287234536082,-2.78181113648498,5.86883230303465,5.2446129737059,-0.335499313243417,4.51508804941386,-0.542672420076087,17.9470140811918,11.3466438134878,15.3058502302579,12.0971096369271,18.7835398638563,15.6906737928657,15.0223680703875,16.7349528990608,16.1147659158901,15.0910826645363,8.9715090700256,3.9609646111744,-4.79653516273493,-6.47295428752841,-3.41558877600619,-2.82808672654255,-6.51558329337013,0.138295314850893,-6.26531308449148,-6.72527889639468,-9.10270718583024,-5.09157581834961,-7.2159810378289,-9.63590388830517,-6.59785857597171,-6.24001516187127,-9.8081799518277,-5.34677930065391,-3.01865862698332,-4.70479424297582,-3.70520097727922,-4.04165937117386,-2.61011240991547,2.06954084763629,-1.05747273867382,-0.689022172788555,-9.78534362786922,-3.66798894456861,-8.5119992923801,7.71147091182274,2.984751957968,11.8165124651996,-1.43253381340219,-14.7574487957199,-4.90161678300865,-11.4025716925107,-3.85552046443536,-2.60644176150799,-6.63365354944835,-2.63187602010294,-3.52885452995133,13.1996594935199,15.9697036951393,7.01038473841118,2.77710275547361,4.88612975756269,7.65766238625793,10.7222847816897,12.0499830055878,-0.392335319509584,-3.48453786433129,-5.07884196012492,-4.15226828715959,0.176774810894585,-2.12560048932846,-3.63273104443397,-3.35687089145722,-4.9750871920096,-7.31938346775087,-5.33112169162587,-2.99872460084271,-4.58266589760478,-1.27988243746768,-6.00045267687528,-4.23420228117357,-2.33055329112358,-1.78918917442434,-0.422717467349685,-4.71656949673115,-2.65358389655694,-1.42158509904311,-5.1444852467348,-2.62848814350809,-1.02646475282108,-5.08367594052379,-1.77333737522076,0.758133111457937,-0.507281040490852,-0.194060184951923,-0.707058271461392,-3.95179717404653,-1.27440755518501,0.58517071286451,-3.27911351939383,-5.21392467105534,-1.88688329670686,-4.67513339013476,-0.943211749409784,-5.68102665229935,0.0922025681948071,-0.507804696480889,0.899189804066282,-2.41138023187659,-0.768393658715922,-1.24607667433565,-1.89756332064189,-2.40335597595731,-2.99426068909588,-1.80868662984949,-3.34607430906863,-6.99788327054739,-6.19937549667566,-4.58442121884082,-6.29181933317159,-0.672824484009197,-2.98235881232631,-6.14316331029113,-4.24310162395795,-6.97753848519096,-8.82505636007636,-4.24951803204385,-7.98501731785473,-5.00502694413854,-7.43593031214914,-6.22478129241563,-3.3435998797554,-6.85808367922664,-3.00467775555489,-3.91312432128461,0.00139284860779298,-2.15372177453401,-1.92691572622107,-1.57251608250681,-1.55492249313875,-5.50247602351328,-5.41582311913089,-0.778367051697842,-4.74236072142412,-3.2832370824849,-0.263205359160565,-3.40098035818983,1.73090191757956,-1.75968896922177,0.753883889737153,-3.46417196561288,-2.26343722322554,-4.71476704952283,-1.44688914627113,-3.09727586425743,-1.93580046105171,-1.81882670782079,-5.0097034893206,-0.494440421854961,-2.17955080033562,-4.35454729645153,-5.85623530586918,-7.47054392106293,-7.66913986812142,-3.80921593923722,-4.15953284610032,-8.13812867983916,-3.52044660725323,-1.31328658973598,-3.37394077291856,-6.90350272677279,-0.238613572131271,-0.691998485785007,-4.84046066931114,-2.99764219611188,-5.98195441521693,-1.88155712473736,-0.0145652056808103,-2.94197401931433,-2.5725449210172,0.806136164405871,-4.1544051101082,-0.897096756311839,-5.15274544984686,-3.32496284514764,-1.83445353329671
,5,-1.31397497551188,-2.65416781921931,4.38482280258086,5.54109415884295,5.9561130427428,3.6246305574,-0.500890007205271,3.65658412812945,4.89822263701899,-3.96427504314215,2.74038872238953,4.71169150721335,-2.22942812395377,-3.06315637958232,11.4898379461697,13.2514825825751,14.007223657683,15.8628847752266,14.2674468116852,7.24258877478906,13.4800293989715,11.2211028926381,2.87471920215785,9.47658885987721,-1.44521382376342,-2.87687532150312,-4.64655816731101,0.616384487700998,-3.74787312113585,-3.70965698304235,-2.9585233303892,-3.73996248611866,-3.22825365186509,-4.21207005093356,-2.60080597749129,-1.32369939241289,-4.11067652109114,-2.67489266480197,-4.44613162012183,-2.94885917160082,-2.8920729143565,-0.633225433436564,1.33382681427702,-1.03031722958895,-4.24821077700699,-4.19047808351297,-4.36371426517371,0.275984492902808,2.25468457039551,5.10690275086608,-3.30479918835954,4.80238095103414,7.41013448949616,9.02872858551973,9.11271046865795,-8.12403914923379,0.402892454421817,10.7028926844951,2.33445893280805,9.94859211253151,6.11582440155917,8.59677217160743,17.5990657967845,9.2390687071611,10.0189468249127,7.39898534225313,9.37506285222025,10.8003915863806,5.28352830346512,10.6136988143758,9.45056005765809,16.9833278662113,0.268519340178045,-2.3596638257377,-5.26360024255473,-6.26602768410294,-3.03190096773506,-3.67360314067309,-7.48176721110076,-5.2816540036938,-6.79084260515356,-3.79434844710249,-4.00831348157044,-1.98115620447425,-4.75056503906626,-3.80624563945412,-3.52908258413163,-9.09952093593211,-1.18996916990363,-3.62188547849155,-6.12026224623332,0.139546653531397,-3.45735755777832,0.695827412433573,-2.9520116312533,-1.17286185179591,3.93350542349253,2.04930449414633,-0.889772724550312,4.66842565696197,9.65270791310559,5.51702425044414,6.56866803623507,-6.71869879691985,5.56870256305638,0.0657231266195595,6.20224107229751,5.35818209844183,2.47015965027595,7.80312059168455,8.99138963088853,8.82035999873142,13.7426418431601,7.96258991970808,6.33174570258961,13.786160982268,18.4453257144478,17.140685381331,10.4149263379104,5.10931905622692,-2.40241503827383,-3.934876185544,-3.27718075748862,-4.28821205326267,-3.24215978777193,-2.3528838910388,-1.34214916444489,-5.48042022243408,-2.0354799590682,-3.49667988895771,-2.92566059372302,-2.47027786721583,-6.67670423056188,-6.80721606814268,-4.84145851896119,-2.33288443705715,-4.88635392106835,-6.51708920330475,-10.2384592300446,-0.48790917835413,-1.10734545056994,-0.92456155817581,-4.70304123053711,-1.43220810340699,3.98483820395768,7.51443659002098,1.7964587990532,6.43966268792792,9.98212160482763,6.86407270490781,8.44889522271387,-2.86238083816988,6.15659957775733,8.24473328084423,5.09558158409254,6.93623264548933,6.4611389305478,6.53285094116382,12.7434516934668,18.3533965286192,16.5433558764757,12.1137865568317,8.71881993368243,-1.02656083210877,12.0375412851195,21.5770657737285,14.5109948354784,9.34615896877222,-1.97456218087109,-3.79180950571754,-6.23768001074768,-1.61435124863874,-0.394843917958042,-5.10181676030425,-4.42145943636569,-1.25836583361024,-2.11415611791472,-6.69014373049777,-6.71904913057597,-5.67674972082705,-3.51273736629173,-4.17360969207903,-2.73545117288722,-1.89990019306879,-4.81369136735202,-6.34020515422981,-1.39630914520922,-4.12340450312058,-3.16980837801475,1.37647030841117,-2.20273676888382,-3.0859655221343,5.66682765182759,10.6475415423947,1.42093535555614,8.314806843714,26.3963081851471,8.14873903779699,2.38547787697007,10.910516880645,3.1821293804669,8.01538577313204,13.6659480355102,7.96086199022011,15.3230066379974,14.1883196031431,14.8549362232584,16.4256562703972,13.2241093515663,18.4086691946536,16.7193836992365,10.5355381697063,15.2618026506807,12.9182614719166,7.06964658768311,3.03841081522569,1.63164969945865,-5.21389731789441,-5.78550020744797,-4.4221477021033,-4.1788771008305,-5.52981373561124,0.620189472726452,-5.45987190443066,-4.69325480656562,-2.7267048124063,-0.575257949573825,-3.54192047982588,-4.8421665118849,-0.369751462254953,0.0163408642420109,-4.24618179429854,-0.941160186053366,-1.01114539217679,-5.55227042156321,-1.55070341363489,-1.8185430178537,-1.43620105233549,-0.18482146651877,0.365765625303538,-2.84405748692643,-3.44911441783279,-0.073080133583062,0.996301566520287,2.71269523012961,14.8638227425436,-0.220755500659834,-10.5268429080552,-3.71928547448897,-5.56192790018667,3.36446438621078,2.87758889249426,0.330822006222661,3.03717578720125,-0.281904554538869,21.206853273291,15.6072805801018,9.31358371964052,1.10293690458639,1.71548459344422,3.19100850612404,8.98704820050489,8.35462276073895,1.02433702462167,-2.01657303109641,-4.60123268437746,-6.79552763710399,-6.40397243952066,-5.17721572272512,0.305374370982008,-7.19360654809725,-1.84105648645209,-3.08641128140653,-5.53360147767671,-5.03005897345565,-5.05475181095471,-5.26060205623253,0.0285381747935389,-1.03707783966911,-7.29691363263328,-0.974797332151866,-4.56834666165423,-2.68248783356512,-1.08003353095,-1.47393217387662,-3.43843463166468,-5.90792261059642,-2.205778194098,-2.33837860370477,-2.46388784148076,-2.69529506631307,0.116573781806892,-2.26109568875654,-3.31721079281715,1.43592333458673,-4.05471188725005,-3.35653872690455,-5.78405178834237,0.333624201739894,-1.04745976406957,-2.90701812954558,-1.54562757305621,-3.31173563737366,-2.66226505023678,-1.99362952303954,-5.56780957296223,-1.78424167493267,-0.833237382215884,-4.05584304721197,-5.92981257004431,-3.75405404561798,-1.70575345427596,-5.13963729545731,-3.91524990590051,-4.2636006579587,-3.31770259377799,-6.58847086322839,2.14788966453716,-1.26920474473627,-3.2397445093261,-4.5964764004284,-5.61546863015428,-4.94919530140623,-3.47264246950272,-1.64473123307062,-0.254635088165742,-5.48400913272963,-2.6212771887308,-4.60198783011629,-4.82801722071054,-3.68462542902535,-4.21625638814203,-4.64908031423056,-4.68285473322339,-6.15203314142582,-3.21107655545256,-5.45892871394835,-0.790172888252528,-4.02428767651918,-5.22228068861614,0.822111135594696,-4.83629502556141,0.157794703369746,0.978098710510039,-1.50533900166511,0.38135342710666,-4.96517678274131,-1.20722447873504,-5.0252690405714,-4.24585044294054,-3.69466981135793,-3.64920906721954,-2.98527059549224,-1.91351055038422,-4.26422322041162,-1.32962786582766,-1.26968109152722,-1.53123372961727,-1.96794297127917,-3.2135126134167,0.722019434047525,-4.32636761821459,-2.14131116082899,-4.28810485107533,-8.1171582957586,-2.26612244745411,-2.06505600044829,-4.40367663827146,-4.91520806509425,-3.1210839829555,-3.60299094925949,-3.26170448422499,0.741411561059977,-5.42161868114999,-3.99446938988422,0.150197502759511,-1.07065715363979,-3.98402864087439,1.43641710027032,-3.32143003788315,-2.03510617204938,-5.48616402387916,-3.36091741693554,-2.46123620168555
,6,2.68424967573446,-0.257831243415694,5.29244478491637,7.61448004180193,6.60531422787972,8.45682141970974,5.21230193555311,4.78066341429894,6.03112473536294,-3.72378668059628,7.00237562623443,10.0932308656729,-1.68868606221213,-2.90390355550198,8.27574955592127,11.3036075526961,10.9648704623773,16.6451047821192,14.2868464773992,8.02405157440398,9.22595647857224,8.36935213635843,6.39353970961338,12.3339030370662,-2.01421490088023,-0.453587390200028,-1.11742876051312,-1.02614223856108,1.67288308745083,-1.07643973069889,1.53567907791785,1.30499510080699,-1.67872993515039,-2.72116556705987,-7.07025085463556,-2.90644726360051,-1.297712296383,-6.506747853447,-2.12901840185987,2.49038080268701,-1.54119722690029,-1.20509425566388,-0.732466282818223,-5.04826130016954,1.02098442534134,-4.41254008041869,1.63524835724638,-3.28405852724018,4.6117052738723,8.57970544753243,2.03698083506697,2.52838304930674,6.03309904582056,11.2842167584708,4.58268272163377,-3.08505466572524,1.78796002959052,6.01993663064422,2.2908956911142,24.395447201352,8.41989879555194,12.9154659860169,18.3541201105368,13.4448364879863,13.3879815344699,9.15381341524653,12.4058669571086,5.69598362388933,9.46287904914016,9.74364775372032,12.1864912576248,12.0836942218702,-3.29377849553293,-1.96382653427099,-2.06294229549894,-2.76424763335945,-5.95462854168454,-2.83309236878767,-0.260112947993093,-3.05191119814117,-4.73764736107023,1.00230484177155,-6.65249558713776,-2.48092809166656,-3.85713873742588,-3.21788152420095,-0.550839585899666,0.5034501482819,-3.6670636985582,-4.19694491310156,-3.20901989010281,-4.03208201155849,0.152961000634605,-3.76050840001744,-2.2321725794468,-4.77670766689653,3.31094029173482,3.53514756943696,0.697600439755206,8.01385107666738,3.86727887415873,4.83668495541815,3.97733449131783,-0.93845204041645,7.39937015291525,-0.366004925747802,12.5321313442855,7.86393148729758,1.88395474514755,6.72215897829756,10.9710116132824,8.75507606801148,12.3164072032901,3.34120949220551,5.49916149682167,10.4679898925501,16.9901699131956,20.8635176737694,10.7033158942945,5.73550397010195,-4.57818209318339,-4.38410354041253,-5.26209456360994,-2.33217435456527,-2.90263067982869,-0.868319286425049,-1.31276701932757,-2.45799020096365,0.213285453123717,-3.06296870734468,-3.04267653577108,-1.7076148521578,-4.54463105125933,-3.1529109377625,-7.84600927830934,-1.33796074055363,-0.645744126383306,-1.72179006277247,-4.6014138167443,-0.893234631992527,-1.83204602014803,0.715666050492018,-2.42045688853614,-2.51708557978782,7.35404121615738,10.7872924781714,3.29921377326718,12.0050075532008,8.93566839924824,5.1645088864625,11.0638734814897,3.27531471180919,7.72805020477108,5.20997487711702,6.50264844155845,9.70015941477413,5.84704677026957,8.43211395781873,15.3815473131153,16.2928913296196,17.4013177379402,10.1700309909156,5.6918980757282,1.34908774887981,9.94504180386912,12.2543429040566,11.2546188624624,8.41160036942711,-2.00022850937148,-2.65183790090168,0.321472940557669,-3.88024602340784,-3.6225107827886,0.199092824597301,0.572976132068106,-0.618687976148976,-2.86551273467239,-6.99236247688214,-2.50165909464749,-1.06910384329285,-8.14919989262035,-2.44939103852448,-2.95418505906264,0.710881312053971,-2.49874633475338,-1.45633051161713,-1.67495349546289,-3.49364761505149,-0.872180354777356,-1.4568514749235,0.485742136951558,-1.24575987282378,5.5177626746613,10.0855097346425,4.40527537954858,7.77281704291772,25.5119639656759,11.0243173189992,-0.943914152201614,13.1634202264318,6.54401083955781,6.00053261225821,11.1086469531756,10.5455114844508,18.0874973335021,10.6888415567664,13.9524867032633,14.7506742828009,13.7479826023241,15.1765170896824,15.8715575854512,13.6235652490263,16.0860210013498,12.4217189450551,8.96036412662124,2.22196584782341,-2.11329164240533,1.44477764281783,-3.86893922212994,0.736590291633547,-2.85847371458158,-1.61153079714632,-1.42233428113332,0.806582932084893,0.422306923091583,-2.79340399847706,-3.01408230976995,-3.96694932053879,-2.53424025774211,-8.16960315646702,2.04377153503128,-2.62733608098006,-0.772269358312769,-4.08505024751776,-0.410432490902622,-2.6277882543518,-0.680082209615648,-2.10687278443766,-0.393960212138609,-1.91596336843577,-1.29534312195028,2.38350580131873,3.58481576670329,6.37713265322918,1.21811670374336,13.9192826693929,8.48065600315931,-3.62151804959649,0.715506091781663,-0.498277171783229,7.38172004807893,5.86879663055015,-4.08554206961844,1.70679923041689,0.377882881432924,16.9565004073397,12.8714859803931,11.4557342068415,-0.00690819180408653,4.56634169851259,4.82003028830832,10.0806853150852,8.00787907699851,2.22972322509895,-4.1820086061789,-1.21301131335258,-1.40081557733993,-1.36079960203369,-2.54490245574789,0.227254684515628,1.58865597492104,1.38775375322848,-3.10663937056233,-0.563833242240435,-3.19142181619145,-3.41964669665958,-5.51101597994466,-5.4667469128899,-3.59134476773352,-1.83798775272726,-3.33495185998254,1.5690682442073,-2.10242031891767,-3.04315651256275,-0.617800449182596,1.39877585763679,-2.72095319028904,-1.05309631579985,-5.60605750941522,-0.347321069659756,-4.40317989893629,-0.474087674859675,-2.79080188352827,-4.26859920168317,-3.72555851792777,-3.44529519825028,-3.16883362513454,-0.374016749557995,-2.09634038061631,-1.69898910027041,1.46365896536781,1.21858890564545,-2.54855918319527,-3.75435063692112,0.320638607468482,-1.79069753758995,0.380632126220917,-0.196708825686983,-0.798639091342011,1.19753576566336,0.405984570397777,-0.718973632411235,-2.35244713435804,-3.33903389055331,-4.87323436286442,1.2096616711201,-1.33454082071876,-0.936001007228697,-2.19119192358085,-3.49206433003565,-1.86810476397841,-2.35765875770494,-1.90594948592343,-0.67566914643794,-3.44705776832461,-1.68874845285291,-1.41693642912196,0.198998984044465,0.28340825688565,-0.592468284623465,-1.68080665906882,-2.03881201750801,-1.78997463169799,1.95349539418794,1.6655224753622,-3.58318095736286,-3.18314008474363,-2.76987465563161,-0.835523112309602,0.926947350730188,-4.27927374680485,-1.50587175370401,-2.23796766341684,-5.07510807156632,-4.36346387893445,-3.14930965937174,-0.873289084580392,0.275935279519217,-5.23653465663119,-6.94939987769976,-4.86246178511692,-3.46093216331337,0.23941942860165,-3.83131324677152,0.864479841938646,-5.22762253427072,-6.52235399114807,-2.71102210140043,-1.07957737753304,-0.026848412147956,-4.48468883425949,-4.40518656584072,-0.83732966290836,-0.848315488317439,-1.43326883351847,-2.7354160880227,-4.08305794509852,-4.02270266528421,0.359969861793616,0.0896394103478997,-0.728699343832886,-6.02071387648812,-4.88100470001245,-1.70230390014831,0.23719086301935,-1.09293568865223,-0.447784571840202,-1.51671024502639,-2.0330437243606,-1.00898569557921,-0.89799235301416,-4.6589181213285,-1.50405512306816,0.629203516607959
,7,2.38921464214127,0.0870542962729814,1.99987002989701,9.41769140806855,10.4355866085143,6.35175113297328,5.12299035253272,4.32863166119432,5.48992542711221,-0.123465299296186,9.8156693703786,4.06813101433909,-1.73911870156735,0.36271015928105,9.05109228292531,12.6999376436902,12.361985995145,16.1700959152054,13.8252354333372,12.2367819695241,13.455424246647,8.90927747398382,7.2350653570611,12.0822322523322,-3.6960848076601,1.13290788667473,-3.86655097409175,-0.665915144190421,-5.48051151830668,-4.10547826232505,-0.0304444383855298,0.698791392893781,-5.52780371684867,-6.26500171421958,0.722728918886787,-2.57142650443484,-3.85019636290872,-6.48002204778822,0.0317414291203022,-1.04047752664974,-1.95954315732251,-2.07887303373172,-5.92290880580094,-0.401381976701941,-2.55141168417549,-3.44742868486992,-1.59083274273598,0.314271987229404,3.72916280222762,4.7896179174486,3.76982652934203,5.40026983122334,9.2205042115711,11.0354231391348,11.0519617438454,-2.39605207348814,4.44530703665214,8.31895839881372,3.6831488907219,30.2411366861352,6.44690623411179,11.1979025738665,17.3857599271696,12.269795000595,8.77468271473799,10.9259077504289,2.92469150138777,5.75852997949096,5.98648421102007,7.17749069213596,9.36574848639793,12.3758112864762,-3.77864491779746,-1.82365756716945,-5.50272332540726,2.45481439750529,-0.648719680677914,-3.57675287019856,1.29727641113595,1.24638262504504,-1.10124061338365,-3.52924097181585,-2.22254083993539,-2.96973057530795,-3.51633203342499,-1.84907347401895,-4.98304593618786,-5.46888216169828,-1.52543807705024,-7.095480375634,-4.08721891581081,-2.54998868402754,1.02549974973135,-4.58327243756185,-2.90070089787241,-3.63202981693485,3.49917081153171,6.50738866503116,5.24465626358597,4.4157305642866,6.05266378293436,4.05529569075316,3.08827062996988,2.90570399679291,2.85703911636256,3.44816896660359,8.75262377200124,9.40054223757033,6.54081523010291,8.237711532915,9.47372783190485,8.04222470627838,6.90217168617892,1.54141832630921,3.23129533192878,11.945048226271,16.2019720271273,21.1286717289781,10.9933083998667,5.47594292319991,-1.03410774474014,-1.09947475076433,-1.03914216253042,0.921438364673577,-4.16742831805914,-4.55147418209617,-0.341644083833216,1.13626484271435,-3.14217911975084,-3.67186320456631,-6.43084725204926,-4.13805539484065,-4.83464600507887,-6.79149440099036,-3.76886469248848,-5.91374171930602,-6.21321617218973,-4.00849790157599,-4.35224592378654,2.73020032114482,-1.48098259045582,-3.83273369457856,-2.62959533943467,-0.547258190541015,8.16718050586496,6.94785100905347,5.72488677459341,6.55940152237235,5.86343157005649,4.24895217987796,9.31809783474728,1.18669382125609,0.0487411751882973,2.7510633171305,11.1162980066265,10.7407718155919,5.55493765743722,5.46705829186112,10.0753558205142,14.1812379540816,15.9397512053524,5.55816194839053,4.22046022556879,-1.7906158764863,6.94401903846438,6.56337417919622,10.8886785251038,8.2510030629237,-4.96009287486777,-5.31351683404773,-3.34398480682557,-0.00210276213010729,-2.0066816445501,0.376638074524635,-1.37935050323631,0.723464025288649,-4.24398944668428,-3.90074058248229,-5.03665210741428,-5.01099723470543,-1.81640784986757,-1.88220954356711,-4.79236976469292,-5.89406158376823,-2.65240010939078,0.376354559956326,-0.778187890018671,-1.39272203823612,-2.46168452784059,-2.83349050520746,-3.11779757667955,-4.01904225024919,5.70171426679963,9.18764656848725,13.9316100020442,7.60005978852405,23.8951547594188,6.92171730820337,4.12248419124535,14.5997706693456,8.40980335695258,10.5845617222267,11.5799370259556,12.579993893617,19.3883181087467,15.6123106704313,17.0262424026078,12.7897463665113,12.6634825292945,14.9068011386153,16.816883250272,13.9845238880343,16.1817910120817,11.5149019144155,8.81093494790412,3.54196672195303,-0.354706136291043,0.0292517664825027,-2.09829866959126,-1.20855412488982,-4.26500419778631,-4.97728341666516,-0.45577065021007,-1.45640750560869,-2.14408981970519,-1.38247960105491,-1.18284396342551,-3.62153697174608,-7.27794883102706,-6.79401465285582,-6.46718928633527,-2.18352272121319,-1.95670900268715,0.992285950919722,-3.75366136024832,-1.34333357009473,-1.92099570766868,4.08201945971223,-3.0174687252379,-0.375978853107426,-4.06118695495934,3.88513953736447,5.78538582199189,4.27974674603774,6.85419181535963,14.2212708410343,7.25495108729774,-1.63839134122009,2.33801387985341,4.90859180114421,9.88610434145085,3.58939691513478,-3.02077927106711,2.7440688139036,-0.0201333831778356,18.0755829454147,13.9463111864734,9.66589937138269,1.37466847680844,9.36487063684308,2.61278349485428,14.1842886266554,8.26209519461554,2.69490802613745,0.935988014841769,-4.93628999272414,-1.15163650233035,-2.85227374939586,-4.23404620300653,-0.407219578930381,-2.96128427412441,-1.29375944892854,0.951376837169846,-4.79999320877414,-2.91616729924272,-1.6773646755114,0.0612281874973633,0.00353163496811248,-2.43538476219555,0.131391162957698,0.36070421077693,-0.757090913427419,-3.62048711951093,2.37587282047662,-4.73024057694056,-3.97463021627482,-0.20450025102673,-7.13638695655845,-3.36510356431018,-1.10801149848157,-1.17131260751785,-0.0914683962209892,-1.22134692032705,-2.17561569059126,-1.74726827705945,-1.4593873424551,-4.97215815739082,-1.32923644593939,-0.159637378551906,-1.05613615450011,-1.99229202798051,-6.04611849921184,-4.49152077897543,-3.1363960699955,-4.49370543725354,-1.17314134994695,-2.36914451081748,-2.842499733159,-3.05201544421834,-1.90878807996842,-2.34593207412308,-1.96523042963463,-0.813803662348164,-4.00601235604745,1.36181878745174,-5.79203174638633,1.27399710386908,-2.38156224061549,-0.476716540944835,-3.02199288778002,-1.62467580590055,-6.81268496429902,-0.938868709507005,-2.4773261025739,-1.87711147332402,-3.67181182849845,-1.08322189782484,-2.40297492465697,1.9568902722599,-2.66546533252313,-1.7709071609811,4.85943744935321,1.36613017350601,-2.48287290910775,-1.0358413533263,-1.29217123162562,-0.973401825043311,-2.61044988168851,-1.90326694522673,-1.48159146987609,-1.05499694657419,-1.37862114826021,-1.44516825442588,-0.694855629756603,-2.80985479714536,-2.48885622300622,-2.19943123437088,-3.94749537194139,-1.15039802161891,0.85018922547124,0.636948673344705,-2.24865295887048,-1.50755739563783,-0.442829272693416,-0.616699286526455,-2.06704086364925,-1.64966145506469,-0.96150754754126,2.42734873990275,-1.65637335029305,-0.550062014649029,-1.3724540765329,3.81752715959328,-2.40074952878194,0.643198185319307,-3.47341688369579,-2.38699610308367,-2.98573248227376,-1.1544988586279,-4.11278042811819,-2.30426238531163,-9.73222543085558,-2.47684443890694,-0.419647098257883,0.172628017901388,-2.54428883880291,-2.15362106512976,-0.905663797974739,-1.40674021788755,2.03814204147102,-1.92022217056592,-0.116819281360222,-0.534921745418615,-0.785184854037652
,8,0.592116685772908,1.18382499034897,0.619673687499471,8.37246506591691,6.34539371388564,7.44196827451879,3.53116445339037,7.58132967676511,5.0167508000136,1.2064139787185,7.12420104897274,9.6001936444718,2.90547451247767,3.77062768353289,9.60523713849852,9.7688222454226,11.8636164499549,13.5670304633468,14.7065188448341,9.76104114366126,15.763085957818,8.23188267149135,7.16095048114539,14.845108625248,-4.92093258979457,-4.45395439045933,-2.37671468539975,-1.87589768302178,0.814015037629815,1.52571859091768,-6.48828870495618,0.842339462367818,2.49787588708841,-5.72331956857442,1.56022912063554,-1.09094272956281,-1.74979305616489,-3.09370320651806,3.56486184723826,-3.41143110111489,-2.57819306109786,-1.40402735909311,-1.33102382254401,-1.39849132520339,-2.33951817766956,-4.05605138764759,0.078158453566175,-2.78557008863982,3.31446023258195,10.1639030552724,5.30818949948798,9.29614354865271,9.55221451116813,5.27175821039282,3.94119670770169,-0.490229033992819,10.4323226082511,11.4033756322974,5.57428039674323,29.4134230768896,1.89438083489222,12.7411716068445,13.4987749737274,8.53057154023236,8.55730834643782,3.83800901421137,4.72012530058964,7.81321721205177,9.9245892075337,9.56014107538158,9.28446684673554,9.85863974145968,1.04399604161063,1.56216580918908,-2.00806255744601,-1.8706931417255,-1.19143652301,-4.41875339235503,-1.82153229059622,-1.16962720350284,-2.1582810843197,-1.94684720389751,-0.564236972324579,-4.16969711245383,-5.18443803205582,-5.393331755693,-3.58984980265359,-3.40562522011078,-2.8101674869763,-2.24784542507996,-3.24276993065132,-3.04697063152526,-1.73871333271882,-2.98022294584644,-4.27149254897085,2.20932153815511,5.45962406120407,8.89944283643445,0.869718839112011,4.23461771083976,8.26783468286976,0.513086638985442,5.31076736165232,2.60747774522133,7.70749290295089,7.54231655570857,10.7421354875169,7.12682360076633,0.446928376072719,2.35243771689829,8.42535806865999,2.95045419127655,0.71511956771883,0.66875268914373,7.12623442891481,15.0039534672928,10.1464809289064,15.1893676631685,9.73431042899028,8.65160204959966,1.36327677361396,-4.86143492420115,-2.8306099471356,-6.64700494732824,0.157035492477462,-2.79829352315983,-2.62864001547587,0.344886641807079,-0.187086652183552,-1.54888447204985,-2.42504128806286,-3.8052715720637,-0.200882914431077,-3.96926453577271,-2.50859088043535,-0.957813717961926,-4.50880785175877,-3.34908136763534,-4.71754465136382,-3.68841700159146,0.459195891151921,-3.01543918139214,-2.08593870859067,-1.82888927456906,7.97951441388977,9.15916732320238,7.57414000049175,8.26376386122502,9.35818133471275,4.38297242485442,11.2488531086328,5.39643594966583,4.9956589245985,8.76787389557103,2.97063649720621,11.9274447401885,6.65631234565353,5.07566291008879,13.1340589821943,15.1396756066865,11.2039513819186,8.52314270827537,6.04479995192514,3.83224406433601,0.418452448065182,10.9924030038333,11.6274585982978,9.3324230502144,0.746451377047379,1.77487548887029,-0.233850608819466,-2.9613260327983,-3.49690390653586,-0.892218843087448,0.559224652060493,-0.824229549435131,5.26913789635955,-4.24261949845959,2.15993066083547,0.572064690576553,-0.632398740657663,-1.26496012196776,-3.07930580346783,-2.65750376542564,-5.64145440783841,0.0777295717448396,-2.01013719253888,0.464656145762092,-3.12356942982979,-1.09504328983712,-4.72760562291205,-3.91355964022705,7.44837298061339,10.597386698124,10.6757724927829,12.2947186939709,19.27619258101,10.3859795470062,5.82558404196243,15.8384927837228,7.32958156698669,9.87883443689225,9.04475914627619,13.4156234493266,16.128038675758,13.0017658024553,15.716230838807,10.3524410231794,13.9482274802067,9.49514669833798,14.5464650920985,10.2167794889315,15.7844179277486,14.3188657356782,4.41117790193493,5.71809162712088,-3.96495442992773,-2.281160666299,-4.92179543877046,-2.92330538542956,-2.50507204401674,1.3377567740622,-0.101835806208328,-2.84670507583223,2.51117656292718,-2.37775204522086,1.14099200739884,-0.851797757769418,-1.71468268974422,-0.891008689127375,-0.29694972814832,-0.11322233371402,-5.0318509118074,-2.75223508550107,-6.37685807942717,-3.73046266610709,-1.35564137957772,-1.87950215358978,-3.19665951669549,1.14113937630327,3.63512835071833,3.5738778726859,7.35032518595517,5.64038020833186,7.4458559012246,9.91747073754732,5.37542325572122,-5.01373228670491,5.31587526812291,6.02310850149752,10.9951541036689,8.46821576490402,-1.03420304981182,2.92166910560218,-0.692454682109656,14.5554444843442,12.7471478612656,6.57049920667259,0.510639965785231,3.68820902227662,7.5084301662705,12.3427136157015,13.9437235594096,-1.27968994222419,0.854955770805191,-6.67593664822925,-0.406980952790491,-0.679434908833628,-1.40916401221102,-2.78975721350889,-3.10168245420937,-3.04124032489563,-2.10905993333654,-2.74252594448444,-0.634897972323415,-0.264338363293064,-2.56058344214125,-1.90966149408268,-3.846476246375,-0.69441614786183,-0.226422631384139,-3.57557971022879,0.0358498847895135,0.349845244697917,0.781493381378823,1.68908855097334,-0.120774754214835,-0.928279245203612,-1.11690328792702,-3.38759141232367,-1.58116542644939,0.937767421715307,-1.39776461910742,2.47635342729791,0.583471852819002,0.0812375548107411,2.72414109423607,2.78899245142793,-2.42187748313654,-2.0415850209065,-2.56664686712247,-2.32413457439316,-2.72366712234452,-3.73450731106414,-1.26572736134904,-0.578177910850172,-0.405656738306789,-3.03762767951503,-1.0524901255767,-0.789783084612736,-1.85646751898275,-3.33067851024271,-2.40837942337339,-0.25494788353808,-2.39928519819478,-3.83414155055289,-4.68707674149164,-3.97879323708003,-1.71384356569661,-1.63376660865833,-2.06300734064507,-3.71982740946351,-3.34878232387337,-3.56934937097049,-2.89584990340518,-2.0928776611122,-4.99404098771493,-0.425408297615832,-2.6972330051276,-1.65531398119083,0.602692038106397,0.944720407555451,-3.60563094625195,-3.82024770962516,-0.509750818924658,0.591791902437308,0.0391153667687831,-3.09345890363329,-0.965809067367445,-2.30944468104053,-3.15884578008945,-2.74028854255721,-2.15363311774763,-3.61185706064225,-2.29400300143834,-1.19629454412325,-3.43131374457835,-2.6803498288773,-2.43125376013995,-2.77029724511158,-2.17257328336609,-0.356777576185323,-0.318060667478221,-1.22497940431822,-5.12722869730578,-2.18187872322096,-2.44324496364152,0.284975900429799,-0.64577135072841,-1.15441195883841,-1.51809941097736,-0.30737495152016,-4.24967563893324,-1.54839904527125,-1.21979272305953,-1.0562245405763,1.26878842499673,-1.1437402810343,-1.63106061109238,1.52367108671979,2.1111012164024,0.106355930031441,-1.73898660106079,0.962034808818771,-3.48341274952236,-0.799677845263432,-2.89394299287324,-3.47185095672921,-3.79602890617662,-2.13638045361949,0.0357696508240224,-0.673760676789698,2.22785016926719,-1.94934627104658
,9,4.29432067395783,0.961507898465243,2.55064027608751,8.23271437946823,4.98817891940689,5.64969139894674,10.5117743624041,5.77994159477839,3.11905816899798,5.7241347368772,10.4749266584304,5.85824838015287,0.562696080364276,1.74133188952555,6.95794187417687,11.4803012888697,13.2529269451966,13.8866186692767,14.2616506899135,9.54932337643595,16.504797229486,6.71327545713166,8.94336201674741,7.47012321140437,-1.30292332134877,-4.78426754306838,-3.1312494923227,-3.22157905869335,-4.43381385633529,-5.5411751181914,-1.60584848364306,-0.0456848141702721,0.284588609733419,-1.27961346849588,-1.8432616496334,-2.39162341531528,-3.06822927530584,1.54387088358362,0.88333806430137,-1.49999147657445,3.55955520252428,4.12330440574942,1.52102022837016,-0.835957348014745,-2.44085232886709,-1.18739649802592,2.91556587915193,-0.680487039460331,2.64700028461994,8.81933591230563,0.937747583400323,5.20425565150299,1.9234721824123,4.56305267179414,9.08342248732379,1.78865748533644,8.98035502883931,16.0967900567998,12.2545069709249,27.9550629081323,4.02097887978698,9.0005224274264,16.1270445037876,12.6563978735185,10.6619332650885,4.97719454109301,8.90643631533794,8.50925383540744,7.69072711024273,11.5974550990463,8.13132593747832,14.6310682284943,0.406266273675556,-1.48074157719293,2.94704911211602,-0.327575972179147,3.15936114575788,-3.00129344806101,-2.10311478168433,-2.35065519261434,-1.77980733717868,0.245327633177567,-3.65611196869077,-1.58586394839904,-2.49119431792133,-2.10800527598258,-2.15311275936119,0.937832640982379,-0.434299329282567,0.0873335741889605,-3.80961545109994,0.310276599781901,0.659858639968661,-1.73425626052494,0.695720147119118,-3.0430662168892,4.345587520957,4.4189604856183,4.61200849274701,4.88503537004772,2.28206396418864,4.17598509019126,5.81998698724965,3.87357782973777,9.97673383095298,8.31328483195648,9.98886603120263,4.46122129285914,1.80321816307833,8.49660661520511,14.5535221998698,6.8253856340425,5.03303031139831,2.27510118555392,10.7250299484258,8.72644080073314,10.2236053165379,17.9579667812836,9.27386789898037,3.64973712282426,-0.940460045680538,-0.103165569214525,-1.72398670312941,2.14170642962426,-2.03400710621327,-0.155312258953927,-2.0349002593407,-0.176149349576463,-5.5442530254868,-1.40851651217872,-3.1274642084577,-1.20644871313107,-1.55505496790556,-1.44058980292357,-1.90014708143462,-3.27202803389264,-2.40455321263835,1.63078992124701,0.0631016522638674,-0.98880375868066,-3.5344717760604,-2.66948572042566,-1.65893158817607,-0.513891459666866,10.0947485055208,9.15875076875591,8.10619683759251,2.69915882844634,5.50977571906242,7.59795566423509,14.0657778808977,6.78753805553242,5.55432533574003,8.38001623950458,8.17619516455852,9.76799668990589,4.90058990798343,4.52523329831138,7.41723412351666,13.7478042092885,9.51536209108963,5.74274575460686,10.7320029638227,1.70514749009772,1.17289369004357,4.46004009102171,11.057851085588,7.11836371570416,0.231525517744558,1.73602620998054,-1.08779388003677,-2.30710300434885,-2.59916619586693,-5.92160963350534,2.4112406877598,-5.5433321136029,0.383766853776251,-1.13477740163944,-1.62278767745647,-1.29938300408048,-2.06270277057729,-3.41758647425513,-4.58456009201473,-5.51806926678864,-0.914734448415857,0.276395328583476,-0.233787497709272,0.207545454865794,-2.75029666169348,1.94016835318052,-2.51119462690758,-1.3596129499856,8.49024688661484,13.3218178722777,12.717798679847,14.4509350386857,19.862798851671,9.54842387423923,3.7639601277524,11.607959997199,7.84067381162231,11.7245108082843,7.50765433250763,10.0007771182864,17.7636303625231,11.5960849332564,11.8331110838899,11.1703841642907,9.99215223283318,11.9771268741174,13.7478351835389,13.3527113707632,11.6039287042249,9.4521857433424,4.95381060974523,0.72355031388588,-3.12279854675398,-1.17126502264273,0.49683127977778,1.7521260109429,1.36346388723996,0.769193287232611,-1.91913131770161,-2.96664649961713,-2.27081310073527,-2.57774174586712,0.49565675314625,0.88930604696634,-4.03317723344617,-1.91899985415421,-3.48908238376407,-4.42770896301499,-0.905365414338121,-1.98072170790556,-2.8757485747924,1.03981282907307,0.322994625792944,-1.5235510763091,-3.61349601978009,-2.70326277950107,8.96745524098424,7.83036893587132,4.73866403643024,2.01731847167139,8.33978068943634,7.42062115349063,7.38719778318045,-0.699706755180159,6.72146982843969,5.00887125567078,12.9291981236638,11.6371192538263,0.265248578855335,3.79077337673561,-0.494971091146454,15.5673791155568,11.8284149600227,7.99137242875486,0.0498067736189114,4.31565130921535,6.64886397868713,10.9365907529032,10.9897593018181,4.39437871328983,0.062319330264927,3.12512824999249,0.0500431411592217,-0.0302778204836613,2.78976952100538,1.40715928305281,-1.07850781524621,-3.20275397124351,0.0403456586291213,-1.76602639547309,-2.97039943813115,-1.55765648697889,0.881240627043098,1.37306457048498,1.93295857973635,2.517435176258,-0.159979376761385,-1.98035204373036,-0.769363962014722,0.395884332462174,2.18300018208038,-0.270309078172886,0.316478328781614,-1.88806977128979,-0.632854427290567,-0.725277283358082,-0.861024211340009,-3.46279827376839,-0.861814357138883,0.860987445578758,2.52624712515944,-1.48352123769064,0.663881483770183,0.982885601380985,-0.792848690303799,-0.549878644841101,-1.63504749221602,-1.59633942447181,-2.04354824225402,-0.163755146963467,-4.4484368753383,-0.735361984489373,0.367118878059046,-1.964314639024,-0.467122381563058,-0.560261096288741,0.189322336023906,-0.726558047799699,-0.651532387940733,-1.03654593649298,-0.713117722907555,-1.81372226019494,2.51384376249644,-2.31072795386171,-2.38745134769624,2.25638900880722,-0.440246299959199,-5.3884835012459,0.907716821535814,-1.88598702937406,-1.23282870506091,-3.67419057277448,0.0321618773641603,-2.11039057102516,0.791503773931254,0.334845536457124,3.87024041145969,-0.0617902002209121,-1.12738647520928,-0.501264347877623,0.409798781593054,-0.227179720714958,-0.800767722225828,3.61617029736271,0.514754922945485,-4.06414532496729,0.523429848244177,-3.61168130027181,-0.673195661782302,-4.00562386815272,0.299421475051986,-3.36967996189605,-1.90199596281263,-2.71530554571382,-1.38497389710619,-4.45965119990478,1.24409405108054,-3.85199930112231,0.0500897040728887,1.39028408877675,-1.74838953833932,-1.05078117452831,0.114509678705872,0.205482833836868,2.38399571803393,0.50805476225969,-0.212512122405315,-2.1342290879852,-3.62529400026597,-5.37651894904093,4.95539029316387,-1.30952920536538,0.854063393044726,-1.22095034037193,-2.27862383215688,-5.79885520070184,-2.85220650108886,-1.14937410425864,-2.50067104695836,-2.63564808315095,-2.3152269693478,0.88070702350069,0.896640485598709,-1.89947480346245,-3.10294121235938,-0.0572410370095895,-1.23482468158227,-0.624295683132459,1.28908618296691,-0.390452488271421
,10,4.63445027560056,5.76709566678392,4.47246090559111,4.93700926623978,1.27595586633015,5.0058734399654,6.2849881462198,6.7117624796465,2.38877969081568,6.70994833721943,5.99589584638352,7.56765680690751,5.0171630590462,-1.73962746372217,5.80789647800793,13.6366355970144,9.07147040774089,15.4044905455698,12.158234094928,14.0944838082846,19.0573774598756,8.47444557938525,8.51110799764137,12.2261919021803,-2.67080074270234,-1.87881124232354,0.189284934300758,-0.615006122846808,-1.52721638775301,-1.06142899219867,-4.24434056774135,-0.531903373376736,-2.77322325461819,1.78556571055287,-2.44481310972287,-3.42072593400781,-1.51023777379532,-0.263154888103145,-5.00852696064749,2.37946759787837,-1.72815615191712,-5.32400112216601,0.9413045151191,-1.43977223719958,-3.90264067724138,-2.13150581581112,0.421146390512604,-3.88389902895688,3.51931550183554,6.21321841793633,5.07330353697216,7.94139452131867,6.96756797936087,3.38492887455686,2.11587467547133,2.80516637279061,12.8608663356536,7.81620652468382,3.74805099759124,18.3782086233741,4.87735755367476,5.73201601348546,15.8225532110373,8.16914707911201,8.29862059279321,5.36045974202943,5.84541748785205,8.87145318243665,7.8453692390276,7.24147720293468,4.05278995425169,14.8682428260977,0.210824723556016,-2.8364278007266,-3.6348683182805,0.115829089022554,-0.866202759054886,-0.834786163918579,-2.35896428499655,1.58632461133493,-2.85446345619312,-4.13931828681052,-1.25637449436772,-2.57790156727833,-4.40407216902349,-3.1381210240047,-9.57629028631709,-1.52744325863887,-2.32012483405697,2.16607740420795,-2.51482944702502,0.194283693565012,-1.01885636056659,-0.283728658815562,0.352976948054675,-0.450737997167835,3.49841798862008,3.52767099573748,7.29572094684772,2.14954946783882,-0.691950828451809,2.07212929528851,6.82147823573814,3.19017858994539,5.86912552470039,4.29447247188364,8.00130791276024,7.83179532054646,4.78938007662964,5.48365019570656,12.231685833558,5.59464568245494,-0.57013486257074,-1.10071691066469,6.89454195626604,8.97076334345729,9.62656516441484,13.790587981227,6.31754251889743,4.97265655517504,-3.61489129932352,0.432172692525,0.0730494247291062,2.19137240983855,-4.05091939376507,-3.90012440833652,-1.61609823267918,0.249151846292989,-3.79008519580566,0.252516669710076,-0.225449596177441,-2.53187912862131,-3.2116429272628,0.161646923114404,-0.77779832048418,2.68138935369643,-1.79971181069322,-2.90784984542643,5.25729332151104,-2.52578788585197,-1.23403874860605,-2.67440384642669,1.48401867690563,2.20082236577537,3.92023598045125,4.46657855319836,3.00852302854764,2.67620209430515,6.47630817891059,0.333833894854251,10.1663801354989,4.30962820621971,7.72075508820626,10.1145844238863,9.42408235421317,4.77100546043675,1.43439719541948,4.13599819174169,7.69345970941959,12.0851241414553,9.21593579446289,3.83455704804692,11.7706650924665,1.49719539186981,1.33128870051223,1.07109365517726,7.11086907103208,9.1653729421173,-3.50895036392376,-2.294507152601,-1.53777668516614,-1.00264121451073,-0.0573622599731607,0.0971424234007827,-2.22637918287501,-1.89234024152802,-1.58638326443042,-1.79457418410902,7.74597976895029,-2.10078264674348,2.59966876628596,-2.31046845529545,-1.51901887576651,-0.432188989923361,-3.6294391768356,1.67263490955156,-3.70290733430556,-1.61321772090332,0.844393311920612,-2.0906924259657,0.0362586204214495,-0.194345987920769,2.83016245045701,12.2817494149876,12.3998208701159,11.8766170285253,13.3809442287793,7.93116567313427,1.86369947929961,14.0185606935211,6.09466251055937,7.27099719803118,5.06038697553413,8.59861460688535,11.481466475218,10.7566264306465,10.2430355319575,10.268603338277,9.7927837484217,10.5988950182432,14.652797883155,12.6376278855932,13.2624668368439,12.1121126230632,2.80135992097394,0.336379138752818,1.06247460269606,0.0924385428629648,-3.6320080939272,-0.14171975630461,2.34863249221462,0.562873916998342,0.751419513741439,4.40411603944403,-2.3621538467055,2.30176921173916,1.80832826151527,-1.46821518145816,1.45252768334603,-0.909834500554098,-0.77922064464201,0.150666469458429,4.91755952238691,-5.36528972645192,1.5961342229898,-1.88098884299779,-0.386299149162369,0.565452863747396,-1.22916921504338,-1.86386050054671,7.67784715512698,7.13655543391451,6.13808949607801,5.8367685525177,3.15277916935065,6.46661571028926,7.24941964554,0.646816716935973,4.31041146374037,10.0575604717178,8.03253110266814,9.66789243336461,-2.92358146792731,2.14970767727164,3.30087288931099,19.0294652639432,9.31121449824332,5.7628252416489,1.98331257263999,2.40951802261498,1.84758081353766,9.36626142429304,6.22685024665179,4.51703358619807,-3.23077941225756,-1.68129883760912,0.987051142302789,-2.10024143393093,-1.80176592521548,-2.81380413628949,-0.842179738056529,-3.3172659511124,-0.356560729362627,0.197183369365121,-0.213799923968963,-0.78127905420979,-3.92377659271051,2.18841394323681,0.92391136013066,0.0446151371293126,0.851257609364893,3.50760550846826,-2.61929932903695,-1.37372622424436,0.18652106945774,-3.02600079795411,-1.87985183029923,1.09965926062841,-2.5740747751006,-0.879335178522524,-2.22819327685693,0.9741019074213,-1.46247838492627,-5.12821975138149,-0.313225118745777,-2.67771639624652,1.93824001790426,2.02070286908884,1.07730149432155,1.5072919457125,-0.23714925546119,0.467239887415417,-3.21742922525209,-2.35084660450684,2.72270000459775,-2.97393784692849,-3.58141633962578,-0.46651452903734,-3.0796524614957,0.186248204107414,2.67345589501019,-1.23292723917484,2.17302109319326,2.91022938976357,4.11227322208788,-1.20946572176581,0.791835749032089,0.443654406672522,-0.816860577901934,-3.28294462703388,0.354764572836757,0.854682223013697,-0.559042184752798,-1.3371255527486,-1.47971857660286,-0.229838223473962,1.07591873552337,-0.876598275538981,-0.860430958920915,0.421926413915571,-1.73986829680734,2.33513608340763,1.09396157043466,1.61787281737497,-5.33732376828493,0.112115367761362,-0.0532755031117631,-1.18152809714911,-3.7255695038325,-1.96224584002994,-3.34296815805874,0.272227892656247,-0.530531429203165,-0.063216260365607,4.00116705192568,-1.91259847709534,-0.379540711667687,2.66396424400455,0.941216611267009,1.94198633510041,-2.05512818101579,0.399506429312623,1.70587209801624,0.882262426982834,1.46455695952045,2.36464662790513,4.71106613520396,-1.06618142557772,-3.21251980391708,-0.536831192468071,-4.41600621833913,1.63930935006783,-4.60863127504308,-2.13468024438816,-0.639843201770873,-2.24305020317843,-3.07484443365729,-3.9803525510938,-0.436249494527601,-1.86109186281192,-2.20385964782008,-3.87026725821352,-1.88777517372,0.968159691702567,1.27103167580663,-2.23903217024417,-1.66298306937915,0.218269358459111,-2.96157410694605,1.61839350695027,-1.55610119699077,5.32622219019959,3.47606014211078,0.270333553371984
,11,7.01162380769892,5.0016973400293,1.37922685611875,4.19301997101638,-0.60453122537001,4.77327540898568,-0.0413773738218879,2.80399459900036,2.78457545290894,6.19022731087671,6.31570860596958,5.4872442211481,3.1322218546934,-0.228448006279905,8.28810043885824,10.1348234508041,4.7225786359877,12.7497904925876,10.2972322135342,7.26321706767158,13.4456556668638,10.3861691924026,2.22084281710113,9.02242621849973,0.451305733602112,-0.958355003609995,0.462170523537225,0.159960106444942,-0.057166400951246,0.724942754541189,2.59935225349,1.43972727628125,-3.51072136491212,-0.820427453399134,-1.55257485501124,1.4964054709626,-1.47580847375139,-1.00846666664165,-3.31136207242571,2.60450677044719,0.909116035738862,0.170261764885254,-0.673206291611223,-1.71508423468094,2.86185666789243,-0.713205417244808,1.9904463011444,-2.7588477133736,4.21152291369981,8.65845806100651,7.42444908192556,8.62890109554655,1.17826717763182,-0.56915133605753,8.85429717159377,4.21339839155326,5.07275320546569,5.62103146752133,0.221972024711249,12.9763477418001,7.80471771649309,10.8832673475658,17.6177342710048,9.78776913044749,7.44541773352012,4.63398433416432,10.464288190969,9.45676603736638,7.92444609876611,5.08481950750365,7.13498387316258,7.5874774459935,-4.08470979664753,-1.92882128064275,-4.67807578991096,6.21825923244342,2.79196194701854,-2.45726253813473,-0.104173700123283,-3.31156927215761,-0.0647479503218165,-1.74511068681113,-4.61564604215573,-0.453630558067289,-1.61830670363588,2.05794573433195,-0.613321991046632,-2.15843746823066,-1.94574469232475,-3.42939070809462,-1.57355475250279,-1.50444039352624,-3.09000626541729,-2.43161659415364,-2.82135747310076,0.59521221804016,3.63842109954248,2.17756305171588,8.11399369529909,0.608273435043884,-2.94052831542558,5.63808247006773,8.41774631940643,6.69517822921171,2.22697920450901,10.6193040910575,8.41272422875045,5.08705699622351,2.87014742414021,5.90362729211847,7.39971536042594,2.56475189348294,5.04479172132233,1.82001631348885,7.85016386491588,12.561536270925,11.512119747104,13.5147009532893,7.73109230845694,6.51726327852839,-4.10086040825854,2.135790783017,-2.57114443251612,2.99033329770737,-2.31619724161055,2.31359170802943,-1.7927168778092,1.20562649144858,-3.09950953062344,-0.400590534075945,-4.01033319698399,3.19485259761314,-0.125115373476547,-1.51829821197498,-1.9955175023897,-0.284935756232244,0.910342392692655,-1.45733761070915,-2.6550353610819,-1.53698231611043,1.41681922639873,2.83808595267692,-0.184776949371553,-1.8630711179303,4.86346433984636,5.73910053505915,9.27660174842458,1.19163276724157,3.16525870342048,2.43640017131293,5.9573362238566,7.7556626634896,9.29854749593005,12.8873826448144,2.32954487800816,-1.53142553089492,4.59448251512868,7.28893748108112,10.7439974093472,8.47695523327184,9.66779881387993,6.36306463425626,4.92912783222073,4.10490214591709,-2.71002733344721,-3.94128563241793,6.95582495066719,2.58456802050478,1.42503589881744,0.188737409082478,1.90662176450451,-0.0178918566971333,-1.40701990599655,2.29047209528972,3.66608652488185,1.01990631514673,1.53216476953639,-3.55143858557631,-0.819872805766408,-0.809049708573184,-0.519891310764251,0.502488063347755,-0.631869515574635,-0.30632425958629,2.22795774122142,1.46385647384977,0.763660424146565,1.6402791401465,-1.89779652104198,-2.83336457171117,-0.95499955475907,-2.50329290253103,5.90258843365746,9.81846100366738,12.1895113434366,7.27970693124053,12.7075803764719,2.30065629688033,4.01889774175925,11.6866027492097,1.69983002192657,9.522588026015,5.23250264981652,-1.30955421451563,16.3049035048712,10.0161795915737,8.76366227785138,9.85444669182743,4.43410774474569,8.9564016084355,12.7260652975428,8.54703303093993,10.2372485851952,12.1965546327942,1.65619896694261,1.25043000893493,-1.02173419479459,2.54342948095837,-0.614857515194217,1.37080373106437,-0.0663300379947032,2.28498846209504,0.0855231887917398,1.60159997052779,2.35189869661099,-2.14812257031508,0.556493287247577,-2.7352514807626,0.736894851173929,0.543486700405538,1.23171013528781,0.503702294734921,0.304544165015614,1.46372274727855,2.71014302990352,-3.14348800791504,-2.08227681695826,-0.424380515697976,-1.84334556440626,-0.0214405058286502,6.10371926051448,11.6999453957328,6.69423628322329,7.95440700468771,3.24285584180234,9.82386430766564,6.24778609376062,3.28914349986371,6.74032170712053,9.32197093076229,9.42236036173017,7.78466164724159,0.0290923460111117,1.16781730734419,-0.0399995020179631,14.8949713470793,6.88856983903997,7.39671666658705,1.30230758185189,3.4850410649733,6.19919788046855,12.7874524528725,5.89154413177448,6.36305689704795,1.54712998169816,-3.2024322494708,0.829449588115949,-3.73427934227357,0.181542053459452,-0.425628673532174,1.17825760782489,-1.97693289222252,-0.350756498548435,-1.89062237856615,1.49998866139367,-1.3671052553932,-0.258513401831351,1.815504281838,-3.12106838951968,2.06773454079075,4.31785192320149,1.67517733637078,-0.287611467440001,-1.61161763559858,3.75955153672567,-1.18358330686124,-3.24403641543267,-0.698496998049905,-1.19248413492824,0.0442727178788118,1.85781377253488,-0.299664220504383,-1.53155007293026,-1.81710864318438,-2.5389755098754,1.42838309418676,0.213473094400342,-2.53572226056531,-4.48479529133647,-3.3864156384866,-1.60315999450768,0.431480234778974,1.1128035814213,0.642433463589441,0.926793155792438,-1.24235507460617,0.121910033289623,-0.449856033014385,-2.15254074280983,-0.358137236840776,-0.742945615833833,-0.0826446641349321,0.460977846914375,0.234675309506201,-0.994778784395294,-1.26989107542067,-2.55890679212325,-2.01806719638626,0.122831283244068,-1.11948951949989,-0.584380896477342,-3.30949373538806,-1.08076252057026,-0.801756025946816,-2.82149200249432,-1.17409189747332,1.69853499654437,-2.74207771644205,0.537209463214822,5.24053447816277,1.33009994391205,-2.41066743495276,-2.39712265338267,-4.16296181192138,-0.596692159985651,1.90015621808107,-1.92606615909199,-3.38991827327527,1.87592246769145,1.36371427670201,-0.117014653973456,-1.28741914495004,2.45659064583924,-0.841585990844578,0.542102753192466,-2.71345852610966,1.42451676245537,-1.28601172041226,-1.16878205936746,-0.928676036751312,3.13484026528386,1.56008393257662,1.13311671074143,1.78050545698261,1.19479901521527,1.77776263229589,-0.0237848918995951,0.20419846748382,-1.71608052835609,-1.73414489438983,1.07254404277001,-3.89582250385274,0.302557043008619,0.622099554746455,-1.04411172088567,1.10142190207216,-1.69021526278084,0.612613706075535,2.81199252535225,-0.91518617211068,-0.899046926117535,2.52175513352995,-3.18099129352549,-0.85591963353454,-4.55357376954362,-1.14900402152625,-2.71208687818034,-1.23176238529823,-3.33934864243338,-6.92646432540823,-4.0595612681027,-6.43291005177161,0.781988750620258,-0.35153392760003
,12,3.30421040183319,5.80851002745067,6.54911308564942,5.99737761159986,3.09908307823844,3.70930661023885,2.19831182426697,6.10327301307325,4.62783582073735,8.53391123194888,5.52525284189551,15.586539791735,0.637693815959665,3.94778926216986,7.76941928783572,10.5254658138165,11.2042279181278,10.3631335660375,12.5465633436675,6.79348275468237,14.5796743164274,6.41990955521305,7.40995420385434,5.80726890654432,-1.82871227693977,-1.67280214246784,-1.05305610939376,-1.11381173059453,4.26910014384612,1.53796778043989,-1.73005561949685,4.27410495515915,0.282988684651627,-2.47495020951328,0.11955855165661,-3.18047790466608,-0.515268745729827,-0.087262620839283,1.45961724607332,0.667175615545148,0.996015338017514,3.3777667973045,0.321098637798968,-2.77506906172175,0.50555544454528,-0.466361333383247,-2.37245871826281,-0.178039005590108,2.3489295596969,7.06451588550817,6.0992016588707,4.18392145711687,5.10952562090824,-1.11058723724864,8.44301621477734,6.32438686803198,8.49611023560601,3.23833008899373,0.816838819763689,8.8345947100006,1.58527408067403,8.47144394363067,10.9613195023312,6.51682220342627,3.80482816137919,5.14755523137683,5.83868361760779,9.45826396738221,9.53470443545575,3.37659915657287,7.42701474790783,9.10179789537915,-0.0608111296928655,-1.78541518453994,-0.471346243059998,-2.4520640415144,0.827780421780972,1.13214311435831,0.786923117124388,-0.371568015076718,-3.46247109588876,-1.23863545169979,0.484918538392776,-4.80416744583954,-1.15285852612533,-4.02450879902426,-2.59523915067166,-1.46027687040169,-2.25903504756388,0.473611136250383,1.35193332770632,-3.8706079649528,0.547879532992283,3.33978349687368,0.793112422295508,0.536897646090893,0.581334822244571,2.63941250205335,6.24821242106782,1.0705911268592,-2.54678582944871,6.55290954095426,2.1805580346745,5.8502709255481,2.02736973266701,6.95868721000807,2.84255642249263,8.38288436534094,2.30511573816466,5.70567868216449,7.9814179113805,-1.91387743213045,-0.708417032147281,-1.20238661194117,7.89588347304198,8.30352958738376,10.604178334655,9.92530600635973,2.47750158318195,2.00155899850688,-2.20352813227782,0.906651531038733,2.18532064554756,-3.3714285695728,3.93302621981775,0.188675391806555,-1.07524885182056,2.70572942945773,2.14872296322346,-4.5904430335745,-3.99850060603694,-1.5649796584371,3.84321915749979,2.05417233149274,0.346703886417345,1.78870289944416,1.68232775995057,3.87255152089529,-0.917459918017357,4.94833817906328,-1.57054424971557,2.58662452836779,1.87519114680981,0.789769921193056,2.82061392368723,1.90419998673087,6.18342663697058,3.8975655968834,2.75060935083184,1.10985353334581,9.04931350923653,7.02948506052053,22.613004222992,24.8720250226261,7.65492084952984,1.82425739086375,7.42469233757856,2.53948484374723,8.64190897075878,11.9259609607279,5.21675502188191,5.25614073086717,7.28431412171494,5.9630532204269,-4.45557528425798,-5.87529044923622,5.8146187201778,6.16332084646001,-3.01096574525445,2.05313550370965,-2.63549639046641,-3.54629957397401,-0.0528133233115113,-0.790193402002842,-0.54703477690191,-0.729440822559809,1.30538721907033,5.33024557814861,1.38843545406144,-2.88164304346901,-3.14796127384761,1.90643879375648,1.06321363148209,0.628754720393317,1.4743482079034,-2.31204206361008,-1.48084156938739,-1.6672960961273,1.77143336185463,0.650855477573259,-1.20003458404744,-2.6597165244907,5.20626640989303,10.0657896196153,9.82198963673181,10.9580176006662,8.16341366301458,0.414824080226936,9.40236893137444,6.88244888377176,10.434637851798,4.91783403875979,3.08626634607208,1.17825190719213,13.5578043634159,9.78435881367841,10.436159654701,4.56283473824215,5.35839501778764,7.47917286601478,13.8560351601227,8.35235564549839,8.61354909552119,8.97977347697815,2.61304261421628,0.0137511375746726,0.665900588790009,-1.44093684822701,2.55956348762174,2.54763689024912,1.57102766912794,-2.55660179033885,-2.60555994323795,1.77523679328351,1.89105706689543,-0.485470221303331,-1.57222681910162,0.967207970829804,0.374650705144632,-0.194952011240275,-1.09889442647955,1.21214416668408,0.462257813474935,-3.09633086558051,1.99371904621466,1.10784345741104,1.98180089758171,0.344462597850452,0.74525713616822,-3.20983082786142,3.53879455199694,8.10425827896506,5.83309191206672,4.18867777685591,2.09429580266897,6.16085999889765,7.42715564508762,6.1527979137345,6.03559652097556,9.54248016430211,15.3343378195277,10.269713351081,2.42616807742525,3.46709025735436,-0.129728753624477,8.59658678484811,8.22639818553353,5.88174125814658,1.97875536275114,3.525867411734,8.0672941590401,4.67158379276498,7.81518852048839,5.09271207127767,0.908688711527702,-0.760297999361228,-2.70951012861133,2.87093753623685,-1.28579209679629,-0.362168340343487,0.961078272521263,-1.01069863648763,4.11979922301771,-0.397279543768946,-2.59214470325469,1.93073718904407,0.951631304245439,-2.86375402277736,-2.09205036517005,-3.87791191584483,1.84296934828262,1.36649082924487,1.20101410094458,-0.834220181388446,0.969184630156178,1.09213614914552,-1.0346757541065,-0.452760505911556,0.18244149849761,-0.305921835727531,-0.13384437167997,2.56289165669796,0.68962862535227,-2.72179778750296,-0.38442858682447,0.245861517943013,1.65513536927028,-1.51162537776054,-3.90028038850005,0.139969719769852,-3.63770060382831,-1.38404027564411,2.30197727868517,-3.06594528199275,4.60455536740392,2.73440931267623,-2.29116981130983,-4.56899684208338,-1.21749654590485,-0.963345794823454,-0.664295015703374,0.977672101281314,-3.80707480779347,-2.24159174591978,3.12379267377173,-0.413678698007516,2.20842256553988,0.30143666006461,-1.95076602008521,5.89710048503093,2.01525801924981,2.25587133605177,-3.69326052562064,-2.00166069150919,-1.57836408333515,-2.80843843852108,4.53418258219881,0.132690961491789,3.47787021002978,0.886828450234134,0.373623818081796,2.62381919157224,-0.882638776210115,1.56632700145838,0.839375334702254,2.47582045631543,-0.604755312729594,-1.85495565872088,-3.52527201750763,-0.16387770670417,-4.25505166255198,-3.56722591249536,-4.70128630516274,-0.0762232673755534,2.67043516711101,0.213330379748186,-2.41356929993435,-1.10964602488821,0.436479788857469,-1.56143706230796,0.570031553893841,-5.57386000172528,-1.85264326643073,-1.97165768955756,-4.82542635187792,2.68787718894009,0.76685128022109,2.94408347600438,2.4748042087449,2.64774451173798,-1.87199766158119,-3.42057419252569,-1.99010672155646,2.21539671834898,1.50183513421734,-1.87511961893961,3.51898624144906,1.02035545455919,-0.781823337087644,-0.956334138897091,-1.57003636042782,0.641720671852909,-0.231413238086589,-1.03566096606073,0.896657064358351,-1.45914801355138,3.08315944836932,-2.16332473393459,0.352280312138191,1.89557777684558,0.547437576044103,-0.526322092130158,0.0759072342320906,-0.156307801704315
,13,2.86770421495748,3.52454572912484,2.80749873763625,2.39090559222723,-6.17994817809176,2.57619642938789,2.90318611199382,1.30413023397477,0.704330659663356,9.93717729176524,4.4269340730516,9.33739166265696,2.27624002518087,5.88316592153296,7.02530180679651,8.30853961709045,1.12725216112858,13.0830103069811,8.81507646069258,7.88780666575713,11.1896222170644,7.05558819014504,5.39359629272712,7.7379588744725,0.381741833513843,-1.70004174321502,1.1828086350597,0.791441671531629,-1.40765207614504,-0.779320403415113,-0.0758345127883331,-1.93056713319447,-4.89896516671615,0.367735370957689,-1.52043896363557,2.58530514894528,-0.142790486282138,-1.60650413506255,-3.20337026363995,-1.78467751400376,3.14161383195778,1.29511532486367,-1.27478620563488,1.67554730938082,-0.907038223897871,2.27632146692758,0.219276841460214,-0.787362159160693,3.04255925792495,6.64347795234107,6.56497806147672,4.72470215502608,0.371485816237509,-1.32632670151315,3.91920072152971,8.56001045527955,7.54849241918828,5.18098065930917,1.66348447028849,6.85199466851827,2.78420720385475,7.75824015841954,8.48677750559182,10.0699884425453,1.7056746804551,7.88059776750833,3.37964036797894,5.92109884816409,7.31409121973184,6.56956211565239,9.67892866012789,9.48481434745645,-4.33528449416235,-0.673142521276532,2.2079896361488,0.0514274722281698,0.930146022236841,-0.96571785865126,0.924839376900309,0.769125946432268,-0.0498159776921057,-2.77221756215295,0.982932055104357,0.337769782445321,1.8603092008816,-1.3963163119297,1.54143747488024,-0.164948115630978,2.93843658772767,-3.64163638238051,0.644805787001133,2.42965607249425,2.9407464236283,0.0976111272980233,6.46641818208764,4.30815482883054,3.2337532269139,2.4788401737369,7.59450891292408,-2.29485548124421,-2.98783407268547,7.73329829576096,4.84135424082524,5.01140338996447,4.47023017435095,6.79399578480661,0.394156856418704,4.52296249780284,4.11205234653607,7.17380823242002,6.54571549305228,3.11128932425027,-0.944573688304899,-3.71804481634626,5.80623358587036,11.9753173249778,9.53403787803063,11.9357190703308,5.98955420151015,3.50745679525517,-1.62511196311198,1.31952928851979,-2.67251348978061,4.48572678151186,-2.4340990506571,1.0961554538062,1.03183800480019,1.20927292235228,-4.8353085691956,1.95738870172772,3.2938052073514,2.18245217666572,0.860426919085512,-1.80282516301259,1.10155934343629,-0.914849878332916,2.22316975159674,-1.08471837667958,1.01787677896027,-2.8736118460065,-2.61543353644856,-2.21306758433457,0.289197806921948,-1.5798584541435,4.72476619157942,0.754736326283819,4.31578333126254,0.910263355345705,-1.67060157961259,-1.18465901253694,5.70812967375014,4.63465205375451,32.9621218102911,35.0437357835817,4.43662789933114,-5.32600586147692,3.49968509875998,5.31876563163951,1.8935724977232,6.74887581934536,2.86694988962608,3.12218046334647,10.6023626492629,2.34769372993605,-6.94068375195411,-10.7708366719548,3.91311290161912,4.52995512854159,-1.29656652199947,0.179361795101613,-4.74917702895254,-1.69731645106913,-5.66030887604757,1.46612640262356,0.121805065951321,1.22641951591049,1.72710858138817,-0.121306304527479,0.903500086536496,-0.824887133007906,-1.28140443584107,2.66340878296523,2.27220743705084,2.85007722086993,-0.401549339283974,-2.57246015987721,0.956955397113688,-3.1030597538961,3.44363038869415,0.29269046282343,3.03622406156819,4.01876008033469,6.28750739971701,10.4213529665399,7.78584694002802,10.1494592227,0.130622070480968,1.27352203984174,6.93383528144659,6.64837323425445,4.11231528360986,3.19217713211765,0.701607973572209,0.912882898747739,19.1688043486711,8.70142839403707,9.74071158735887,5.9655811668672,10.1981408557067,4.7664709122555,10.7171108109446,8.822696581542,6.54208509991349,7.98688839396118,-0.405250539756707,2.92977260791986,-0.209192266089758,-0.931259064920596,-1.53793509846764,-0.535466444069243,-2.32730782362751,-0.431050739066905,-1.03415717105509,0.583524930995281,-1.84104819376307,0.88009562340585,0.270886592465558,-1.92952314468312,4.02476935759478,2.81342772549397,1.44618573403886,2.63353242223093,-1.53539316095976,-0.605411271086723,-0.0601118907038654,1.58874285262164,-2.13728754182148,1.79196503479307,-2.69746205309411,2.25643565755263,9.2657122112596,5.9230885851739,6.56333718612996,2.34817508952301,-0.341953607709002,3.76921328808567,5.39959162023024,6.09051971167901,4.70600771284444,6.34119719693717,13.1524088321703,8.38836963886934,-0.421076183332389,1.80680701936535,1.85827632863902,13.5952695198534,12.3022615795685,4.33204212435567,6.5449601714754,7.01545504341084,1.43822667845961,11.5230559900228,10.2512629856678,2.81286603860462,-2.87397172237615,-4.31499310354502,0.230769942402731,-0.594285806059816,-1.48630014212677,-0.968697821406749,0.634034576068643,1.88218736084946,-0.651357036108948,-0.627934145832569,6.11016828456968,3.78134760903185,-0.853565364500355,-2.35840861403767,-0.626743034415995,0.986604425472251,0.638119493662089,-1.12380807471482,-0.0668050185095126,4.02123653663966,-0.651911707289401,-0.675606319625786,2.08317355646977,4.29236646189156,-2.0960209454197,0.067566015383818,0.542539630127067,-0.507376529566045,-0.912755501150514,-2.68666007315096,0.542380652811971,0.0603015123792829,0.888832938777796,-0.325826112394225,2.70363678878357,2.34303759368731,2.7516474872009,1.47542267677818,4.26693744351951,-0.54746203294917,0.26055893744433,-0.244357216637127,1.53006166730529,-2.52732297058674,0.732339727489943,2.89929998156549,0.163809465567283,-4.26730978813112,-0.256837701074346,-0.346848850316746,-0.350342996790459,-0.0437016880950978,0.531091371824459,-3.73984485971505,-3.2460323169621,-1.55634503185547,-0.503877198427745,1.81381628543386,2.91001732205905,1.75342270237479,0.492601837989696,3.62074765106172,1.20463728352661,2.18957712814017,5.40318217482672,0.768753396273496,-0.75981009826728,-2.50897456439861,0.797004742061745,2.53873595009463,2.01155487356118,-1.57754203333207,1.29647887430565,-0.172651570196194,-3.17504660336499,-0.941493166360033,2.07919575352298,1.1078954944046,-1.39006640232674,-5.89307815921711,-0.780861503099914,-3.47423543714876,-2.90867272363266,-0.268676601406696,4.05497299546278,2.00882964820539,-0.8429585744625,1.93815663063151,1.13759432269217,0.390375379613033,-1.61991522118569,1.52504628479392,-0.37428462600019,-0.855396977598957,2.38485433661117,2.63712599552946,1.7691563193257,2.28884959908783,-2.45594646848213,-1.65115040324463,-0.425858639638591,2.12742612706597,-2.18232228306715,-4.68951636180554,3.70182942495694,-0.182540996439002,-2.10616438126817,2.67386270083261,-1.67598441853352,-1.84783898328124,1.325441672328,0.388935185213086,-4.41850579806851,-2.45300854508469,2.72453681432353,-1.12376425548609,-2.84855236503063,-0.38670887137323,0.481304456307043,3.19108977544693
,14,4.77090894425419,11.3056228368496,2.80626348260012,3.63759701488652,-2.73182147770785,-0.0779501663500923,4.29432717651798,4.76746980643793,3.38411092384604,5.44220770360425,5.28202902869225,10.6194293864091,0.155642186673504,-0.98648208592931,2.36249213173687,6.37667885959945,5.84069824425069,10.5417991662644,10.7283175007315,6.2867665805943,11.2051147980878,7.57373593684542,9.90347462819591,11.065505035855,-0.881143860818611,-1.76762015453915,0.758146829010457,3.5134817263729,-0.893133664314973,-2.63839013694223,2.03195116890947,-3.59095263162544,-1.58287877763723,-1.67936341288123,-2.62110073623126,-2.51668116002793,0.779334238366118,-0.0081691082832549,0.484791516874338,-2.99142669972616,-0.499754059513634,0.239677232901613,0.902802359389625,0.0983617495712679,-0.0223519162186676,-1.79980941977465,1.9026532206035,1.38570356116088,3.27688076661116,4.01086942279289,3.58645437732912,5.10818792962709,-3.10630547341862,-4.14105692351177,8.10333515666707,7.5382333085372,5.13414820437447,-0.231262423860699,1.33969770137901,1.54370234463386,5.98907124728794,6.6486252745467,11.2857354737957,7.09900622312216,4.80589238268112,0.925460486843804,7.44888336131498,9.82715985638606,6.77131271180497,7.20520120385891,3.07565192481479,7.25398953852073,-0.806776888154218,0.0778746082423822,0.922058445330094,-1.39972476497405,0.302324369527469,-3.18675154916446,-2.48481061257507,2.8401247624065,1.87615449641635,1.60816820432774,-0.834649903846184,-0.0814456623465958,-0.155101744284821,-2.13349055009985,0.883459102609777,0.965877360627019,1.23154583479891,3.73771813417125,0.349245129052633,2.23518906579375,3.21967931151221,-2.25738001992295,4.37146002483132,-0.834117116440211,4.76003555265061,3.12920278130287,9.33455218449717,2.30121045792066,-2.55353232035486,14.5719236213054,4.93895552150843,8.71739451907251,5.9702246757588,9.6448465287458,0.154807175861606,0.309594013651349,3.07943314561044,5.87451124526524,8.4702607924205,-2.85726987611224,-4.90476695996631,-5.22894751229842,4.54207851423462,8.97819629224387,9.05811743569393,6.50937277414596,6.35526135525197,0.245919059415428,0.317103928121924,1.26172429183316,2.20425055732176,-2.83200921868911,1.06274292723629,-1.11963172431751,-2.97285958581324,1.80884498721252,-1.8353935906398,2.97499948328959,0.2621941296552,0.658366879688856,2.87906268174538,0.909173371282122,2.41184276465674,-1.67700705637208,-4.05924580937472,1.03923082484062,2.93772615501211,0.238484973826417,4.41369312087181,-1.5564794017364,0.272399567818866,4.08512204476983,2.95993437377729,-1.18676332936411,4.33124846182636,-3.16921654142334,-1.50641804425049,-5.79205242308308,3.73588058731275,6.45009011400998,56.1828407944913,55.69321654339,2.23549037856174,0.789509295914286,0.232869810039574,6.01160101145069,2.597536287401,5.36520779715283,2.72282536892862,0.407065926046926,7.54424577365353,2.45491134388885,-11.1497814860013,-7.93403588193041,2.82121847013786,1.79445333179001,3.5697907755266,1.07687332249134,-2.21970319583534,-0.175319134070378,-1.53803100241839,-0.762452042432415,-2.43992133373604,0.453260596185828,2.6330421312723,-1.85800815824223,-1.21817431220961,-2.83627545271111,-1.96003139361255,0.420015841455552,0.686946127687406,-0.0590887276075591,2.0965263779658,-2.93850691804482,0.52676684075368,-3.83441360570987,-1.13157715304806,1.26232908219481,0.229596525339275,1.15783846166505,3.65990652355777,10.0207709829801,4.52399353924102,4.53834060360441,-1.06401119077054,-4.15548886568195,8.49551590233023,5.37674017240079,4.14464052228959,0.806866793405788,2.05431155386577,-3.38790301736572,11.6992278113039,5.92453000456635,9.54020419009248,9.02857138321224,5.30734874177006,5.03967521250115,11.9659390570478,8.42321392456142,7.51908288836557,3.94991457834249,1.85730639877738,0.303424942020229,2.11385760455141,-2.09459170906393,-2.29325028167386,0.583178508060428,5.52958599782778,2.34759902759743,1.37583649707676,-0.470282752431558,0.525516919582515,0.835933258445039,2.31548390255239,-1.50687456872811,2.50497786719552,1.08727859271903,1.17390396574319,-1.25563960858881,0.947581262039876,1.83743039633464,3.31366164390101,-0.264807580627348,-1.81083983951748,1.64933089775877,3.22603375694962,2.71685301005937,6.6046304060792,11.5691319170987,5.52617561851685,5.36592745983171,6.02953411786621,3.84575792645228,6.90537728548134,5.6925010439918,9.33300078624416,9.38336348350549,12.1488163975519,8.65333406763693,2.06446850683506,2.17316680636122,2.06101038048746,14.9201751961486,9.23360891520406,8.03181560261055,-0.387722262044008,0.751320221305832,7.84412136060246,8.23777262131898,7.30022706508407,4.57075249362697,0.090730752779109,1.35268856067523,0.91559486287224,-1.66470478618839,0.24584408144392,0.23834943320071,-0.158916021867753,0.817724452170296,2.19149644539129,0.518222481459361,-0.806127795462999,0.106355484817868,1.09594182443789,0.511331509705087,2.26023078865182,1.18581430397171,-3.1101050944776,-0.390977910530637,-2.610250475871,-2.45938109948838,0.249488982969979,-1.12122537472624,-1.5563721131366,-0.470885681464097,-0.221095369488012,-0.456107869967127,-0.033037515272099,-2.23701226603862,2.4446688276189,-1.96472767048635,0.67227060089408,-0.562465697655625,1.49339601381189,-0.470091592326753,1.02972343801048,-2.64530450341908,-0.505274543872019,1.90602900778276,0.554944128412444,4.03086509080276,-0.704105816676929,-0.488587859596464,1.05292864548073,1.76300020015333,-0.858654562271113,-0.264361263758929,2.19180444383619,2.93666575911266,2.92943643602257,-2.30410400803885,3.25375920928582,0.502646799885497,-1.61937852044548,3.19959387559084,-0.56708720844108,0.326624186916888,-2.49408026445371,1.75177372109965,2.45429992066374,3.62248218874811,-0.801639917179273,1.34681317984905,2.74632868552135,-3.26323803180139,-0.931855273308884,2.24960120030573,-0.199029093902936,-0.0983260269031234,0.503137405413781,-1.04964694555474,1.19595701036042,2.77383656022903,1.02425246209896,1.08888511569148,-2.09117973656885,-0.489715948759567,1.10001049287075,1.50669168841887,-2.03855093138782,2.61255983891351,1.44290833746072,-0.632974804716014,-2.51437237226173,-0.894884406590791,1.72679158232768,-2.31493714539874,1.15744938845955,2.71851100974664,2.46748379847713,0.547981992096084,3.06587434113862,2.10355994612928,3.81314440634378,-0.314383769382857,0.46850598205765,2.01487685193524,-1.06891560669465,-1.35711616937397,-3.16804719081802,6.67716761496331,0.296826793801756,1.20249770260489,0.799269671759248,0.647326558512759,1.58209645829174,0.682764342330302,1.89475448975509,3.59762822121093,-0.0284561978414786,-1.25864609044902,2.63456197079449,0.440788912315384,2.232004608642,0.0971010282860334,-0.326742577162349,-1.02336779575535,-0.0191675065334493,0.713426672958576,0.341175208212917,4.83095787718958
